!!!!SEGMENT: pl-kk--kk-i-7--071_pekiel-bartlomiej--nativitas-tua-dei-genitrix.krn
!!!cenid: 16xx:910
!!!COM: Pękiel, Bartłomiej
!!!COM-rismID: pe30105642
!!!CDT: <1633-~1670
!!!CNT: Polish
!!!OTL: Nativitas tua Dei Genitrix
!!!PDT: 1663
!!!AGN: Sacred
!!!YEC: Copyright 2022 Narodowy Instytut Fryderyka Chopina (https://polishscores.org)
!!!YEM: License CC-BY-4.0 (https://creativecommons.org/licenses/by/4.0)
!!!SMS-siglum: PL-Kk
!!!SMS-shelfmark: Kk.I.7
!!!SMS-shelfwork: 071 W
!!!SMS-variant:
!!!SMS-altvar:
!!!NIFC-rismSourceID: 300258077
!!!NIFC-rismChildID: 300258148
!!!NIFC-islandoraID: pl-kk:1956
!!!URL-pdf-islandora: https://repozytorium.nifc.pl/islandora/object/pl-kk%3A1956/datastream/PDF/view
!!!URL-scan: https://polish.musicsources.pl/pl/lokalizacje/galeria/rekopisy/6140 @EN{Scan on Polish Music Sources Website} @PL{Skany w portalu Dziedzictwo Muzyki Polskiej w otwartym dostępie}
!!!IIIF: https://repozytorium.nifc.pl/islandora/object/pl-kk%3A1956/datastream/IIIF/view
!!!ONB-nifc: UWAGA: C (skan 0064-0065, s.121-122), A (0150-0151, s.121-122), T(0227-0228, s.117-118), B(0314-0315, s.114-116). Następny utwór: Sub tuum praesidium
!!!AIN: 1 alto 1 bass 1 soprn 1 tenor
!!!key: g
**kern	**text	**text	**kern	**text	**text	**kern	**text	**text	**kern	**text	**text
*part4	*	*	*part3	*	*	*part2	*	*	*part1	*	*
*staff4	*	*	*staff3	*	*	*staff2	*	*	*staff1	*	*
*Ibass	*	*	*Itenor	*	*	*Ialto	*	*	*Isoprn	*	*
*I"BASSVS.	*	*	*I"TENOR.	*	*	*I"ALTVS.	*	*	*I"CANTVS.	*	*
*I'B	*	*	*I'T	*	*	*I'A	*	*	*I'S	*	*
*ICvox	*	*	*ICvox	*	*	*ICvox	*	*	*ICvox	*	*
*mI"Basso	*	*	*mI"Tenore II	*	*	*mI"Tenore I	*	*	*mI"Alto	*	*
*mI'B	*	*	*mI'T 2	*	*	*mI'T 1	*	*	*mI'A	*	*
*clefF4	*	*	*clefC4	*	*	*clefC4	*	*	*clefC3	*	*
*	*	*	*mclefGv2	*	*	*mclefGv2	*	*	*mclefG2	*	*
*k[b-]	*	*	*k[b-]	*	*	*k[b-]	*	*	*k[b-]	*	*
*g:	*	*	*g:	*	*	*g:	*	*	*g:	*	*
*M2/1	*	*	*M2/1	*	*	*M2/1	*	*	*M2/1	*	*
*met(c|)	*	*	*met(c|)	*	*	*met(c|)	*	*	*met(c|)	*	*
*mmet(c|)	*	*	*mmet(c|)	*	*	*mmet(c|)	*	*	*mmet(c|)	*	*
=1-	=1-	=1-	=1-	=1-	=1-	=1-	=1-	=1-	=1-	=1-	=1-
*xywh-#314:964,3413,6323,1398	*	*	*xywh-#227:7121,1095,6280,998	*	*	*xywh-#150:7350,2328,6541,1214	*	*	*xywh-#64:7205,1038,6304,929	*	*
!LO:TX:t=P:problem=kreska pseudotaktowa	!	!	!	!	!	!LO:TX:t=P:problem=kreska pseudotaktowa	!	!	!	!	!
1D	Na-	Con-	00r	.	.	1r	.	.	00r	.	.
*2\right	*	*	*	*	*	*	*	*	*	*	*
2.E-X\	-ti-	-cep-	.	.	.	1G	Na-	Con-	.	.	.
!LO:TX:a:t=P:problem=all\right&colon; global	!	!	!	!	!	!	!	!	!	!	!
!LO:TX:t=P:problem=kreska pseudotaktowa	!LO:MO:mod=-vi-	!	!	!	!	!	!	!	!	!	!
4E-\	-ui-	-ti-	.	.	.	.	.	.	.	.	.
=2-	=2-	=2-	=2-	=2-	=2-	=2-	=2-	=2-	=2-	=2-	=2-
*	*	*	*	*	*	*2\right	*	*	*	*	*
2D/	-tas	-o	.	.	.	2.B-\	-ti-	-cep-	.	.	.
!	!LO:MO:mod=tu-	!	!	!	!	!	!	!	!	!	!
1G	Tu-	.	.	.	.	.	.	.	.	.	.
!	!	!	!	!	!	!LO:TX:a:t=P:problem=all\right&colon; global	!	!	!	!	!
!	!	!	!	!	!	!LO:TX:t=P:problem=kreska pseudotaktowa	!LO:MO:mod=-vi-	!	!	!	!
.	.	.	.	.	.	4B-\	-ui-	-ti-	.	.	.
.	.	.	.	.	.	2A/	-tas	-o	.	.	.
!LO:TX:t=P:problem=kreska pseudotaktowa	!	!	!	!	!	!	!	!	!	!	!
2F\	.	tu-	.	.	.	1d\	tu-	.	.	.	.
=3-	=3-	=3-	=3-	=3-	=3-	=3-	=3-	=3-	=3-	=3-	=3-
*lig	*	*	*	*	*	*	*	*	*	*	*
*	*	*	*	*	*	*	*	*	*2\right	*	*
!	!	!	!LO:TX:t=P:problem=kreska pseudotaktowa	!	!	!	!	!	!	!	!
1E-X	.	.	1rA	.	.	.	.	.	2G/	Na-	Con-
!	!	!	!	!	!	!LO:TX:t=P:problem=kreska pseudotaktowa	!	!	!	!	!
.	.	.	.	.	.	2c\	.	.	2.g\	-ti-	-ce-
1D	.	.	2D/	Na-	Con-	2B-\	.	.	.	.	.
!	!	!	!	!	!	!	!	!	!LO:TX:a:t=P:problem=all\right&colon; global	!LO:MO:mod=-vi-	!
.	.	.	.	.	.	.	.	.	4g\	-ui-	-pti-
!	!	!	!	!	!	!	!	!	!LO:TX:t=P:problem=kreska pseudotaktowa	!	!
*	*	*	*2\right	*	*	*	*	*	*	*	*
.	.	.	2.d\	-ti-	-cep-	2A/	.	.	2f\	-tas	-o
*Xlig	*	*	*	*	*	*	*	*	*	*	*
=4-	=4-	=4-	=4-	=4-	=4-	=4-	=4-	=4-	=4-	=4-	=4-
!LO:TX:t=P:problem=kreska pseudotaktowa	!	!	!	!	!	!LO:TX:t=P:problem=kreska pseudotaktowa	!	!	!	!	!
1GG	-a	-a	.	.	.	1G	-a	.	2.e-X\	.	.
!	!	!	!LO:TX:a:t=P:problem=all\right&colon; global	!LO:MO:mod=-vi-	!	!	!	!	!	!	!
.	.	.	4d\	-ui-	-ti-	.	.	.	.	.	.
.	.	.	1c	-tas	-o	.	.	.	.	.	.
.	.	.	.	.	.	.	.	.	8d\L	tu-	.
.	.	.	.	.	.	.	.	.	8c\J	.	.
!	!	!	!	!	!	!	!	!	!LO:TX:t=P:problem=kreska pseudotaktowa	!	!
2GG/	Na-	Con-	.	.	.	2r	.	.	1d	-a	.
2.G\	-ti-	-cep-	4B-\	tu-	.	2G/	Na-	Con-	.	.	.
!	!	!	!LO:TX:t=P:problem=kreska pseudotaktowa	!	!	!	!	!	!	!	!
.	.	.	4c\	.	.	.	.	.	.	.	.
=5-	=5-	=5-	=5-	=5-	=5-	=5-	=5-	=5-	=5-	=5-	=5-
.	.	.	4d\	.	.	4.B-\	-ti-	-cep-	2r	.	.
!	!LO:MO:mod=-vi-	!	!	!	!	!	!	!	!	!	!
4G\	-ui-	-ti-	4e\	.	.	.	.	.	.	.	.
!	!	!	!	!	!	!	!LO:MO:mod=-vi-	!	!	!	!
.	.	.	.	.	.	8B-\	-ui-	-ti-	.	.	.
!LO:TX:t=P:problem=kreska pseudotaktowa	!	!	!	!	!	!LO:TX:t=P:problem=kreska pseudotaktowa	!	!	!	!	!
2F\	-tas	-o	2.f\	.	.	2A/	-tas	-o	1a	De-	.
1B-	Tu-	tu-	.	.	.	2.d\	tu-	.	.	.	.
.	.	.	4e\	.	.	.	.	.	.	.	.
!	!	!	!	!	!	!	!	!	!LO:TX:t=P:problem=kreska pseudotaktowa	!	!
.	.	.	1d\	.	.	.	.	.	2g\	-i	.
.	.	.	.	.	.	4e\	.	.	.	.	.
=6-	=6-	=6-	=6-	=6-	=6-	=6-	=6-	=6-	=6-	=6-	=6-
!LO:TX:t=P:problem=kreska pseudotaktowa	!	!	!	!	!	!	!	!	!	!	!
1A,	-a	-a	.	.	.	2f\	.	.	2.a\	ge-	.
.	.	.	2c#X\	-a	.	2e\	.	.	.	.	.
.	.	.	.	.	.	.	.	.	4g\	.	.
!	!	!	!LO:TX:t=P:problem=kreska pseudotaktowa	!	!	!	!	!	!	!	!
1.D	De-	.	1d	.	.	1d	.	.	4f\	.	.
.	.	.	.	.	.	.	.	.	4eny\	.	.
.	.	.	.	.	.	.	.	.	4d\	.	.
!	!	!	!	!	!	!	!	!	!LO:TX:t=P:problem=kreska pseudotaktowa	!	!
.	.	.	.	.	.	.	.	.	4e\	.	.
=7-	=7-	=7-	=7-	=7-	=7-	=7-	=7-	=7-	=7-	=7-	=7-
!	!	!	!	!	!	!LO:TX:t=P:problem=kreska pseudotaktowa	!	!	!	!	!
.	.	.	1rA	.	.	1A	-a	.	4.f\	.	.
.	.	.	.	.	.	.	.	.	8f\	-ni-	.
!LO:TX:t=P:problem=kreska pseudotaktowa	!	!	!	!	!	!	!	!	!	!	!
2C#X/	-i	.	.	.	.	.	.	.	2e\	-trix	.
!	!	!	!LO:TX:t=P:problem=kreska pseudotaktowa	!	!	!	!	!	!LO:TX:t=P:problem=# above	!	!
2.D/	ge-	.	1A	Na-	Con-	0r	.	.	4f#X\	.	.
.	.	.	.	.	.	.	.	.	2g\	Vir-	.
!LO:TX:t=P:problem=kreska pseudotaktowa	!	!	!	!	!	!	!	!	!	!	!
!LO:SIC:s=4Cni	!	!	!	!	!	!	!	!	!	!	!
4Cny/	.	.	.	.	.	.	.	.	4f#\	.	.
=8-	=8-	=8-	=8-	=8-	=8-	=8-	=8-	=8-	=8-	=8-	=8-
!	!	!	!	!	!	!	!	!	!LO:TX:t=P:problem=kreska pseudotaktowa	!	!
4BB-/	.	.	2.B-\	-ti-	-cep-	.	.	.	1g	-go	.
4GG/	.	.	.	.	.	.	.	.	.	.	.
2.G\	-ni-	.	.	.	.	.	.	.	.	.	.
!	!	!	!	!LO:MO:mod=-vi-	!	!	!	!	!	!	!
.	.	.	4B-\	-ui-	-ti-	.	.	.	.	.	.
.	.	.	2A/	-tas	-o	2r	.	.	1d	De-	.
4G\	-trix	.	.	.	.	.	.	.	.	.	.
*	*	*	*	*	*	*	*ij	*ij	*	*	*
!	!	!	!LO:TX:t=P:problem=kreska pseudotaktowa	!	!	!LO:TX:t=P:problem=kreska pseudotaktowa	!	!	!	!	!
2F#X\	Vir-	.	2.d\	tu-	.	2A/	Na-	Con-	.	.	.
=9-	=9-	=9-	=9-	=9-	=9-	=9-	=9-	=9-	=9-	=9-	=9-
*custos:D	*	*	*	*	*	*	*	*	*	*	*
!LO:TX:t=P:problem=kreska pseudotaktowa	!	!	!	!	!	!	!	!	!	!	!
1G	.	.	.	.	.	2.B-\	-ti-	-cep-	2G/	-i	.
.	.	.	4cny\	.	.	.	.	.	.	.	.
.	.	.	4B-\	.	.	.	.	.	1g	ge-	.
!	!	!	!	!	!	!	!LO:MO:mod=-vi-	!	!	!	!
.	.	.	4c\	.	.	4B-\	-ui-	-ti-	.	.	.
*xywh-#314:7224,485,6333,1012	*	*	*	*	*	*	*	*	*	*	*
!LO:PB:g=original	!	!	!	!	!	!	!	!	!	!	!
!LO:TX:t=P:problem=kreska pseudotaktowa	!	!	!	!	!	!	!	!	!	!	!
1D	-go	.	2d\	.	.	2A/	-tas	-o	.	.	.
*	*	*	*	*	*	*	*	*Xij	*	*	*
!	!	!	!LO:TX:t=P:problem=kreska pseudotaktowa	!	!	!	!	!	!LO:TX:t=P:problem=kreska pseudotaktowa	!	!
.	.	.	2A/	-a	.	1d\	tu-	.	2fny\	.	.
=10-	=10-	=10-	=10-	=10-	=10-	=10-	=10-	=10-	=10-	=10-	=10-
*	*	*	*	*ij	*	*	*	*	*	*	*
!LO:TX:t=P:problem=kreska pseudotaktowa	!	!	!	!	!	!	!	!	!	!	!
0r	.	.	2A/	Na-	.	.	.	.	2.e\	-ni-	.
!	!	!	!LO:TX:t=P:problem=kreska pseudotaktowa	!	!	!LO:TX:t=P:problem=kreska pseudotaktowa	!	!	!	!	!
.	.	.	2.A/	-ti-	.	2c\	.	.	.	.	.
.	.	.	.	.	.	.	.	.	4e\	-trix	.
*	*	*	*	*	*	*lig	*	*	*	*	*
!	!	!	!	!	!	!	!	!	!LO:TX:t=P:problem=kreska pseudotaktowa	!	!
.	.	.	.	.	.	1B-	.	.	1d	.	.
!	!	!	!	!LO:MO:mod=-vi-	!	!	!	!	!	!	!
.	.	.	4A/	-ui-	.	.	.	.	.	.	.
.	.	.	4G/	-tas	.	.	.	.	.	.	.
.	.	.	2G/	tu-	.	.	.	.	.	.	.
=11-	=11-	=11-	=11-	=11-	=11-	=11-	=11-	=11-	=11-	=11-	=11-
*	*	*	*	*	*	*custos:G	*	*	*	*	*
2.D/	De-	.	.	.	.	1A	.	.	1.d	Vir-	.
.	.	.	8F#X/L	.	.	.	.	.	.	.	.
.	.	.	8E/J	.	.	.	.	.	.	.	.
*	*	*	*custos:G	*	*	*	*	*	*	*	*
!	!	!	!LO:TX:t=P:problem=kreska pseudotaktowa	!	!	!	!	!	!	!	!
.	.	.	2F#/	-a	.	.	.	.	.	.	.
4D/	-i	.	.	.	.	.	.	.	.	.	.
!	!	!	!LO:LB:g=original	!	!	!LO:LB:g=original	!	!	!	!	!
*	*	*	*	*	*	*Xlig	*	*	*	*	*
*	*	*	*xywh-#227:7122,1678,6437,907	*	*	*xywh-#150:7398,3098,6036,1010	*	*	*	*	*
!	!	!	!LO:TX:t=P:problem=kreska pseudotaktowa	!	!	!	!	!	!	!	!
2.E-X\	ge-	.	1G	.	.	2G/	-a	.	.	.	.
*	*	*	*	*Xij	*	*	*Xij	*	*	*	*
!	!	!	!	!	!	!	!	!	!LO:TX:t=P:problem=kreska pseudotaktowa	!	!
.	.	.	.	.	.	2.G/	De-	.	2c/	.	.
!LO:TX:t=P:problem=kreska pseudotaktowa	!	!	!	!	!	!	!	!	!	!	!
4E-\	-ni-	.	.	.	.	.	.	.	.	.	.
=12-	=12-	=12-	=12-	=12-	=12-	=12-	=12-	=12-	=12-	=12-	=12-
!	!	!	!LO:TX:t=P:problem=kreska pseudotaktowa	!	!	!	!	!	!	!	!
2D,/	-trix	.	1r	.	.	.	.	.	4B-/	.	.
.	.	.	.	.	.	4F/	-i	.	8A/L	.	.
*	*	*	*	*	*	*	*	*	*custos:A	*	*
.	.	.	.	.	.	.	.	.	8G/J	.	.
*	*	*	*	*	*	*	*	*	*xywh-#64:7314,1674,6312,862	*	*
!	!	!	!	!	!	!	!	!	!LO:LB:g=original	!	!
!	!	!	!	!	!	!	!	!	!LO:TX:t=P:problem=kreska pseudotaktowa	!	!
1D	De-	.	.	.	.	1f	ge-	.	2A/	.	.
.	.	.	2.A/	De-	.	.	.	.	2A/	-go	.
!LO:TX:t=P:problem=kreska pseudotaktowa	!	!	!	!	!	!LO:TX:t=P:problem=kreska pseudotaktowa	!	!	!LO:TX:t=P:problem=kreska pseudotaktowa	!	!
2C/	-i	.	.	.	.	2e\	-ni-	.	2r	.	.
.	.	.	4A/	-i	.	.	.	.	.	.	.
=13-	=13-	=13-	=13-	=13-	=13-	=13-	=13-	=13-	=13-	=13-	=13-
2BB-/	ge-	.	2.B-\	ge-	.	2d,\	-trix	.	4d\	De-	.
.	.	.	.	.	.	.	.	.	4G/	-i	.
*	*	*	*	*	*	*	*ij	*	*	*	*
4AA/	.	.	.	.	.	1d	De-	.	1g	ge-	.
!	!	!	!LO:TX:t=P:problem=kreska pseudotaktowa	!	!	!	!	!	!	!	!
4GG/	.	.	4B-\	-ni-	.	.	.	.	.	.	.
2.D/	.	.	2A/	-trix	.	.	.	.	.	.	.
*	*	*	*	*ij	*	*	*	*	*	*	*
!	!	!	!	!	!	!LO:TX:t=P:problem=kreska pseudotaktowa	!	!	!	!	!
.	.	.	1d\	De-	.	2A/	-i	.	2f\	-ni-	.
4D/	-ni-	.	.	.	.	.	.	.	.	.	.
=14-	=14-	=14-	=14-	=14-	=14-	=14-	=14-	=14-	=14-	=14-	=14-
!LO:TX:t=P:problem=kreska pseudotaktowa	!	!	!	!	!	!	!	!	!LO:TX:t=P:problem=kreska pseudotaktowa	!	!
1AA	-trix	.	.	.	.	1A	ge-	.	1e	-trix	.
!	!	!	!LO:TX:t=P:problem=kreska pseudotaktowa	!	!	!	!	!	!	!	!
.	.	.	2c\	-i	.	.	.	.	.	.	.
2.BB-/	Vir-	.	2B-\	ge-	.	2A/	-ni-	.	0d	Vir-	.
!	!	!	!LO:N:acc=#	!	!	!	!	!	!	!	!
!	!	!	!LO:TX:t=P:problem=# above	!	!	!	!	!	!	!	!
.	.	.	4Bn\	-ni-	.	4G/	-trix	.	.	.	.
*	*	*	*	*	*	*	*Xij	*	*	*	*
4C/	.	.	4B\	-trix	.	2G/	Vir-	.	.	.	.
*	*	*	*	*Xij	*	*	*	*	*	*	*
=15-	=15-	=15-	=15-	=15-	=15-	=15-	=15-	=15-	=15-	=15-	=15-
1D	.	.	1A	Vir-	.	.	.	.	.	.	.
.	.	.	.	.	.	8F/L	.	.	.	.	.
.	.	.	.	.	.	8E/J	.	.	.	.	.
!	!	!	!	!	!	!	!LO:MO:null:mod=.	!	!	!	!
.	.	.	.	.	.	2F/	-go	.	.	.	.
!LO:TX:t=P:problem=kreska pseudotaktowa	!	!	!LO:N:acc=#	!	!	!	!	!	!	!	!
!	!	!	!LO:TX:t=P:problem=kreska pseudotaktowa	!	!	!	!LO:MO:null:mod=-go	!	!	!	!
1GG	-go	.	1Bn	-go	.	1G	.	.	1d	-go	.
=16-	=16-	=16-	=16-	=16-	=16-	=16-	=16-	=16-	=16-	=16-	=16-
*M3/1	*	*	*M3/1	*	*	*M3/1	*	*	*M3/1	*	*
1.G	gau-	.	1.B-X	Gau-	.	1.d	Gau-	.	1.g	Gau-	.
2G\	-di-	.	2B-\	-di-	.	2d\	-di-	.	2g\	-di-	.
!LO:TX:t=P:problem=kreska pseudotaktowa	!	!	!LO:TX:t=P:problem=kreska pseudotaktowa	!	!	!LO:TX:t=P:problem=kreska pseudotaktowa	!	!	!LO:TX:t=P:problem=kreska pseudotaktowa	!	!
1D	-um	.	1A	-um	.	1d	-um	.	1f	-um	.
=17-	=17-	=17-	=17-	=17-	=17-	=17-	=17-	=17-	=17-	=17-	=17-
1E-X	an-	.	1G	an-	.	1B-	an-	.	1e-X	an-	.
1C	-nun-	.	1G	-nun-	.	1c	-nun-	.	1e-	-nun-	.
!LO:TX:t=P:problem=kreska pseudotaktowa	!	!	!LO:TX:t=P:problem=kreska pseudotaktowa	!	!	!LO:TX:t=P:problem=kreska pseudotaktowa	!	!	!	!	!
1BB-	-ci-	.	1B-	-ci-	.	1d	-ci-	.	1f	-ci-	.
=18-	=18-	=18-	=18-	=18-	=18-	=18-	=18-	=18-	=18-	=18-	=18-
0.Fny	-a-	.	1B-	-a-	.	1d	-a-	.	0.f	-a-	.
.	.	.	2A/	.	.	2c\	.	.	.	.	.
.	.	.	2G/	.	.	2B-\	.	.	.	.	.
!	!	!	!	!LO:MO:null:mod=.	!	!LO:TX:t=P:problem=kreska pseudotaktowa	!	!	!	!	!
.	.	.	1A	-uit	.	1c	.	.	.	.	.
=19-	=19-	=19-	=19-	=19-	=19-	=19-	=19-	=19-	=19-	=19-	=19-
*custos:B	*	*	*	*	*	*	*	*	*	*	*
!LO:TX:t=P:problem=kreska pseudotaktowa	!LO:MO:mod=-vit	!	!LO:TX:t=P:problem=kreska pseudotaktowa	!LO:MO:null:mod=-vit	!	!LO:TX:t=P:problem=kreska pseudotaktowa	!LO:MO:mod=-vit	!	!LO:TX:t=P:problem=kreska pseudotaktowa	!LO:MO:mod=-vit	!
0.BB-	-uit	.	0.B-	.	.	0.d	-uit	.	0.f	-uit	.
!LO:LB:g=original	!	!	!	!	!	!	!	!	!	!	!
=20-	=20-	=20-	=20-	=20-	=20-	=20-	=20-	=20-	=20-	=20-	=20-
*xywh-#314:7224,1079,6249,1001	*	*	*	*	*	*	*	*	*	*	*
!	!LO:MO:mod=U-	!	!	!	!	!	!LO:MO:mod=U-	!	!	!LO:MO:mod=U-	!
1.B-	V-	.	00.r	.	.	1.d	V-	.	1.f	V-	.
2A\	-ni-	.	.	.	.	2c\	-ni-	.	2f\	-ni-	.
*	*	*	*	*	*	*custos:A	*	*	*	*	*
!	!	!	!	!	!	!LO:TX:t=P:problem=kreska pseudotaktowa	!	!	!	!	!
!LO:TX:t=P:problem=kreska pseudotaktowa	!	!	!	!	!	!	!LO:MO:mod=-ver-	!	!LO:TX:t=P:problem=kreska pseudotaktowa	!LO:MO:mod=-ver-	!
1G	-ver-	.	.	.	.	1B-	-uer-	.	1eny	-uer-	.
!	!	!	!	!	!	!LO:LB:g=original	!	!	!	!	!
=21-	=21-	=21-	=21-	=21-	=21-	=21-	=21-	=21-	=21-	=21-	=21-
*	*	*	*	*	*	*xywh-#150:7470,3723,6252,1250	*	*	*	*	*
1F	-ſo	.	.	.	.	1A	-so	.	1f	-ſo	.
*	*	*	*	*	*	*	*	*	*lig	*	*
0C	mun-	.	.	.	.	0G	mun-	.	1f	mun-	.
.	.	.	.	.	.	.	.	.	1e	.	.
*	*	*	*	*	*	*	*	*	*Xlig	*	*
=22-	=22-	=22-	=22-	=22-	=22-	=22-	=22-	=22-	=22-	=22-	=22-
!LO:TX:t=P:problem=kreska pseudotaktowa	!	!	!LO:TX:t=P:problem=kreska pseudotaktowa	!	!	!LO:TX:t=P:problem=kreska pseudotaktowa	!	!	!LO:TX:t=P:problem=kreska pseudotaktowa	!LO:MO:mod=-do	!
0.FF,	-do	.	0.r	.	.	0.A	-do	.	0.f	-do,	.
.	.	.	.	.	.	.	.	.	.	.	.
=23-	=23-	=23-	=23-	=23-	=23-	=23-	=23-	=23-	=23-	=23-	=23-
*	*	*	*	*ij	*	*	*	*	*	*	*
1.F	gau-	.	1.A	Gau-	.	1.c	Gau-	.	1.f	Gau-	.
2F\	-di-	.	2A/	-di-	.	2c\	-di-	.	2f\	-di-	.
!LO:TX:t=P:problem=kreska pseudotaktowa	!	!	!LO:TX:t=P:problem=kreska pseudotaktowa	!	!	!LO:TX:t=P:problem=kreska pseudotaktowa	!	!	!LO:TX:t=P:problem=kreska pseudotaktowa	!	!
1C	-um	.	1G	-um	.	1c	-um	.	1e	-um	.
=24-	=24-	=24-	=24-	=24-	=24-	=24-	=24-	=24-	=24-	=24-	=24-
1D	an-	.	1F#X	an-	.	1A	an-	.	1d	an-	.
1BB-	-nun-	.	1G	-nun-	.	1B-	-nun-	.	1.d	-nun-	.
*	*	*	*custos:A	*	*	*	*	*	*	*	*
!	!	!	!LO:TX:t=P:problem=kreska pseudotaktowa	!	!	!	!	!	!	!	!
!LO:TX:t=P:problem=kreska pseudotaktowa	!	!	!	!	!	!LO:TX:t=P:problem=kreska pseudotaktowa	!	!	!	!	!
1FF#X	-ci-	.	1A	-ci-	.	1A	-ci-	.	.	.	.
.	.	.	.	.	.	.	.	.	2d\	-ci-	.
!	!	!	!LO:LB:g=original	!	!	!	!	!	!	!	!
=25-	=25-	=25-	=25-	=25-	=25-	=25-	=25-	=25-	=25-	=25-	=25-
*	*	*	*	*	*	*	*	*	*custos:d	*	*
*	*	*	*xywh-#227:7171,2257,6330,940	*	*	*	*	*	*	*	*
!	!	!	!	!	!	!	!	!	!LO:TX:t=P:problem=kreska pseudotaktowa	!	!
0.GG	-a-	.	1A	-a-	.	0.B-	-a-	.	0.d	-a-	.
.	.	.	2G/	.	.	.	.	.	.	.	.
.	.	.	2Fny/	.	.	.	.	.	.	.	.
.	.	.	1G	.	.	.	.	.	.	.	.
!	!	!	!	!	!	!	!	!	!LO:LB:g=original	!	!
=26-	=26-	=26-	=26-	=26-	=26-	=26-	=26-	=26-	=26-	=26-	=26-
*	*	*	*	*	*	*	*	*	*xywh-#64:7330,2344,6153,828	*	*
!LO:TX:t=P:problem=kreska pseudotaktowa	!LO:MO:mod=-vit	!	!LO:TX:t=P:problem=kreska pseudotaktowa	!LO:MO:mod=-vit	!	!LO:TX:t=P:problem=kreska pseudotaktowa	!LO:MO:mod=-vit	!	!LO:TX:t=P:problem=kreska pseudotaktowa	!LO:MO:mod=-vit	!
0.D	-uit	.	0.F#X	-uit	.	0.A	-uit	.	0.d	-uit	.
*	*	*	*	*Xij	*	*	*	*	*	*	*
=27-	=27-	=27-	=27-	=27-	=27-	=27-	=27-	=27-	=27-	=27-	=27-
*	*ij	*	*	*	*	*	*ij	*	*	*ij	*
!	!	!	!	!	!	!LO:TX:t=P:problem=rozmazana kropka przy całej nucie	!	!	!	!	!
1.BB-	gau-	.	1.B-	gau-	.	1.d	Gau-	.	1.f	Gau-	.
2BB-/	-di-	.	2B-\	-di-	.	2d\	-di-	.	2f\	-di-	.
!LO:TX:t=P:problem=kreska pseudotaktowa	!	!	!	!	!	!	!	!	!	!	!
1F	-um	.	1A	-um	.	1c	-um	.	1f	-um	.
=28-	=28-	=28-	=28-	=28-	=28-	=28-	=28-	=28-	=28-	=28-	=28-
!	!	!	!	!	!	!LO:N:acc=#	!	!	!	!	!
1G	an-	.	1G	an-	.	1Bn	an-	.	1d	an-	.
1E-X	-nun-	.	1G	-nun-	.	1c	-nun-	.	1.e-X	-nun-	.
!LO:TX:t=P:problem=kreska pseudotaktowa	!	!	!LO:TX:t=P:problem=kreska pseudotaktowa	!	!	!LO:TX:t=P:problem=kreska pseudotaktowa	!	!	!	!	!
1C	-ci-	.	1c	-ci-	.	1e-X	-ci-	.	.	.	.
.	.	.	.	.	.	.	.	.	2g\	-ci-	.
=29-	=29-	=29-	=29-	=29-	=29-	=29-	=29-	=29-	=29-	=29-	=29-
!	!	!	!	!	!	!LO:SIC:v:s=1e-	!	!	!LO:TX:t=P:problem=kreska pseudotaktowa	!	!
0.G	-a-	.	1c	-a-	.	1eny	-a-	.	0.g	-a-	.
!	!	!	!LO:N:acc=#	!	!	!	!	!	!	!	!
!	!	!	!LO:TX:t=P:problem=# above	!	!	!	!	!	!	!	!
.	.	.	2Bn\	.	.	2d\	.	.	.	.	.
.	.	.	2A\	.	.	2c\	.	.	.	.	.
!	!	!	!	!LO:MO:null:mod=.	!	!	!	!	!	!	!
.	.	.	1B	-uit	.	1d	.	.	.	.	.
=30-	=30-	=30-	=30-	=30-	=30-	=30-	=30-	=30-	=30-	=30-	=30-
!LO:TX:t=P:problem=kreska pseudotaktowa	!LO:MO:mod=-vit	!	!LO:TX:t=P:problem=kreska pseudotaktowa	!LO:MO:null:mod=-vit	!	!LO:TX:t=P:problem=kreska pseudotaktowa	!LO:MO:mod=-vit	!	!LO:TX:t=P:problem=kreska pseudotaktowa	!LO:MO:mod=-vit	!
0.C	-uit	.	0.c	.	.	0.c	-uit	.	0.eny	-uit	.
*	*Xij	*	*	*	*	*	*Xij	*	*	*Xij	*
=31-	=31-	=31-	=31-	=31-	=31-	=31-	=31-	=31-	=31-	=31-	=31-
!	!LO:MO:mod=U-	!	!	!LO:MO:mod=U-	!	!	!LO:MO:mod=U-	!	!	!LO:MO:mod=U-	!
1.C	V-	.	1.G	V-	.	1.c	V-	.	1.e	V-	.
2BB-/	-ni-	.	2G/	-ni-	.	2d\	-ni-	.	2g\	-ni-	.
*custos:GG	*	*	*	*	*	*	*	*	*	*	*
!LO:TX:t=P:problem=kreska pseudotaktowa	!	!	!	!	!	!	!	!	!	!	!
!	!LO:MO:mod=-ver-	!	!	!LO:MO:mod=-ver-	!	!LO:TX:t=P:problem=kreska pseudotaktowa	!LO:MO:mod=-ver-	!	!	!LO:MO:mod=-ver-	!
1AA	-uer-	.	1A	-uer-	.	1c	-uer-	.	2f\	-uer-	.
!	!	!	!	!	!	!	!	!	!LO:TX:t=P:problem=kreska pseudotaktowa	!	!
!	!	!	!	!	!	!	!	!	!LO:TX:t=P:problem=# above	!	!
.	.	.	.	.	.	.	.	.	2f#X\	-so	.
!LO:LB:g=original	!	!	!	!	!	!	!	!	!	!	!
=32-	=32-	=32-	=32-	=32-	=32-	=32-	=32-	=32-	=32-	=32-	=32-
*	*	*	*	*	*	*col	*	*	*	*	*
*xywh-#314:7245,1737,6229,886	*	*	*	*	*	*	*	*	*	*	*
1GG	-ſo	.	1B-y	-ſo	.	1d	-ſo	.	0g	mun-	.
!LO:TX:t=P:problem=kreska pseudotaktowa	!	!	!	!	!	!	!	!	!	!	!
0D	mun-	.	0A	mun-	.	0d	mun-	.	.	.	.
.	.	.	.	.	.	.	.	.	1f#X	.	.
*	*	*	*	*	*	*Xcol	*	*	*	*	*
=33-	=33-	=33-	=33-	=33-	=33-	=33-	=33-	=33-	=33-	=33-	=33-
*	*	*	*	*	*	*custos:E	*	*	*	*	*
!LO:TX:t=P:problem=kreska pseudotaktowa	!LO:MO:mod=-do	!	!LO:N:acc=#	!	!	!LO:TX:t=P:problem=kreska pseudotaktowa	!	!	!LO:TX:t=P:problem=kreska pseudotaktowa	!	!
0.GG	-do.	.	0.Bn	-do	.	0.d	-do	.	0.g	-do	.
!	!	!	!	!	!	!LO:LB:g=original	!	!	!	!	!
=34-	=34-	=34-	=34-	=34-	=34-	=34-	=34-	=34-	=34-	=34-	=34-
*M2/1	*	*	*M2/1	*	*	*M2/1	*	*	*M2/1	*	*
*met(c|)	*	*	*met(c|)	*	*	*met(c|)	*	*	*met(c|)	*	*
*	*	*	*	*	*	*xywh-#151:1210,591,6067,983	*	*	*	*	*
!	!	!	!	!	!	!	!	!	!LO:TX:t=P:problem=kreska pseudotaktowa	!	!
2r	.	.	4.G/	Ex	.	2r	.	.	1r	.	.
.	.	.	8G/	te	.	.	.	.	.	.	.
!	!	!	!LO:TX:t=P:problem=kreska pseudotaktowa	!	!	!	!	!	!	!	!
4.C/	Ex	.	2c\	e-	.	4.E/	Ex	.	.	.	.
!LO:TX:t=P:problem=kreska pseudotaktowa	!	!	!	!	!	!LO:TX:t=P:problem=kreska pseudotaktowa	!	!	!	!	!
8C/	te	.	.	.	.	8E/	te	.	.	.	.
2F\	e-	.	2A\	-nim	.	2A/	e-	.	4.c/	Ex	.
.	.	.	.	.	.	.	.	.	8c/	te	.
!	!	!	!	!	!	!	!	!	!LO:TX:t=P:problem=kreska pseudotaktowa	!	!
!LO:TX:t=P:problem=kreska pseudotaktowa	!	!	!	!	!	!LO:TX:t=P:problem=kreska pseudotaktowa	!	!	!	!	!
2D/	-nim	.	4d\	or-	.	2F/	-nim	.	2fny\	e-	.
.	.	.	8d\	-tus	.	.	.	.	.	.	.
!	!	!	!LO:TX:t=P:problem=kreska pseudotaktowa	!	!	!	!	!	!	!	!
.	.	.	8c\	est	.	.	.	.	.	.	.
=35-	=35-	=35-	=35-	=35-	=35-	=35-	=35-	=35-	=35-	=35-	=35-
!	!	!	!	!	!	!	!LO:MO:null:mod=or-	!	!	!	!
4G\	or-	.	(<4.B-y\	Sol	.	4B-y\	.	.	2d\	-nim	.
!	!	!	!	!	!	!	!LO:MO:mod=-tus	!	!	!	!
8G\	-tus	.	.	.	.	8c\	or-	.	.	.	.
*	*	*	*custos:G	*	*	*	*	*	*	*	*
!	!LO:MO:null:mod=est	!	!	!	!	!	!LO:MO:mod=est	!	!	!	!
8F\	.	.	8A/)	.	.	8d\	-t(us)	.	.	.	.
*	*	*	*xywh-#227:7229,2851,6091,932	*	*	*	*	*	*	*	*
!	!LO:MO:mod=Sol	!	!LO:LB:g=original	!	!	!	!LO:MO:mod=Sol	!	!	!	!
1E-X	est	.	1G	.	.	4.e-X\	est	.	4g\	or-	.
.	.	.	.	.	.	.	.	.	8g\	-tus	.
!	!	!	!	!	!	!LO:TX:t=P:problem=kreska pseudotaktowa	!LO:MO:mod=ius-	!	!LO:TX:t=P:problem=kreska pseudotaktowa	!LO:MO:null:mod=est	!
.	.	.	.	.	.	8d\	Sol	.	8f\	.	.
!	!	!	!	!	!	!	!LO:MO:mod=-ti-	!	!	!LO:MO:mod=or-	!
.	.	.	.	.	.	8.c\	iuſ-	.	4e-X\	est	.
.	.	.	.	.	.	16c\	-ti-	.	.	.	.
!	!	!	!	!	!	!	!LO:MO:null:mod=-ae	!	!	!LO:MO:mod=tus	!
.	.	.	.	.	.	4B-\	-tiae	.	8d\	or-	.
!	!	!	!	!	!	!	!	!	!	!LO:MO:mod=est	!
.	.	.	.	.	.	.	.	.	8d\	-t(us)	.
!LO:TX:t=P:problem=kreska pseudotaktowa	!	!	!	!	!	!	!	!	!	!	!
!	!LO:MO:mod=ius-	!	!LO:TX:t=P:problem=kreska pseudotaktowa	!	!	!	!LO:MO:null:mod=or-	!	!	!LO:MO:mod=Sol	!
2E-\	Sol	.	2r	.	.	4e-X\	.	.	4c/	e(st)	.
!	!	!	!	!	!	!	!LO:MO:mod=-tus	!	!LO:TX:t=P:problem=kreska pseudotaktowa	!LO:MO:mod=ius-	!
.	.	.	.	.	.	8d\	or-	.	4B-/	Sol	.
!	!	!	!	!	!	!LO:TX:t=P:problem=kreska pseudotaktowa	!LO:MO:mod=est	!	!	!	!
.	.	.	.	.	.	8d\	-t(us)	.	.	.	.
=36-	=36-	=36-	=36-	=36-	=36-	=36-	=36-	=36-	=36-	=36-	=36-
!	!LO:MO:mod=-ti-	!	!	!	!	!LO:TX:t=P:problem=częściowo zamazana półnuta	!LO:MO:mod=Sol	!	!	!LO:MO:mod=-ti-	!
1.F	iuſ-	.	4.f\	or-	.	2c\	e(st)	.	4.A/	ius-	.
!	!	!	!	!LO:MO:mod=-tus	!	!	!	!	!	!	!
.	.	.	8e-X\	-t(us)	.	.	.	.	8A/	-ti-	.
!	!	!	!	!LO:MO:null:mod=est	!	!LO:TX:t=P:problem=kreska pseudotaktowa	!LO:MO:mod=ius-	!	!	!LO:MO:mod=-ae	!
.	.	.	4d\	.	.	2B-\	Sol	.	4.d\	-ti-	.
!	!	!	!	!LO:MO:mod=Sol	!	!	!	!	!	!	!
.	.	.	8c\L	est	.	.	.	.	.	.	.
*	*	*	*	*	*	*	*	*	*custos:f	*	*
!	!	!	!	!	!	!	!	!	!LO:TX:t=P:problem=kreska pseudotaktowa	!	!
!	!	!	!LO:TX:t=P:problem=kreska pseudotaktowa	!	!	!	!	!	!	!LO:MO:mod=ius-	!
.	.	.	8B-\J	.	.	.	.	.	8eny\	-ae	.
*	*	*	*	*	*	*	*	*	*xywh-#64:7364,2880,5952,887	*	*
!	!	!	!	!LO:MO:mod=ius-	!	!	!LO:MO:mod=-ti-	!	!LO:LB:g=original	!LO:MO:mod=-ti-	!
.	.	.	8A/L	Sol	.	2.c\	iuſ-	.	2.f\	iu-	.
.	.	.	8Fny/J	.	.	.	.	.	.	.	.
!	!	!	!	!LO:MO:mod=-ti-	!	!	!	!	!	!	!
.	.	.	2B-\	iuſ-	.	.	.	.	.	.	.
!LO:TX:t=P:problem=kreska pseudotaktowa	!	!	!	!	!	!	!	!	!	!	!
2F\	-ti-	.	.	.	.	.	.	.	.	.	.
!	!	!	!LO:TX:t=P:problem=kreska pseudotaktowa	!	!	!LO:TX:t=P:problem=kreska pseudotaktowa	!	!	!LO:TX:t=P:problem=kreska pseudotaktowa	!LO:MO:mod=ti-	!
.	.	.	4A/	-ti-	.	4c\	-ti-	.	4f\	-ſti-	.
=37-	=37-	=37-	=37-	=37-	=37-	=37-	=37-	=37-	=37-	=37-	=37-
!	!LO:MO:mod=-ae	!	!	!LO:MO:mod=-ae	!	!	!LO:MO:mod=-ae	!	!	!LO:MO:mod=-ae	!
4BB-/	-tiae	.	2B-\	-tiae	.	4d\	-tiae	.	4f\	-tiae,	.
2B-\	Chriſ-	.	.	.	.	2d\	Chriſ-	.	2f\	Chriſ-	.
!	!	!	!LO:TX:t=P:problem=kreska pseudotaktowa	!	!	!	!	!	!	!	!
.	.	.	2r	.	.	.	.	.	.	.	.
!LO:TX:t=P:problem=kreska pseudotaktowa	!	!	!	!	!	!LO:TX:t=P:problem=kreska pseudotaktowa	!LO:MO:mod=-tus	!	!LO:TX:t=P:problem=kreska pseudotaktowa	!LO:MO:mod=-tus	!
4F\	-tus	.	.	.	.	4f\	-t(us)	.	4a\	-t(us)	.
4.G\	De-	.	1r	.	.	8eny\	.	.	4g\	De-	.
.	.	.	.	.	.	8d\	De-	.	.	.	.
!	!	!	!	!	!	!	!LO:MO:mod=-us	!	!	!LO:MO:mod=-us	!
.	.	.	.	.	.	2d\	-(us)	.	4f\	-(us)	.
!	!LO:MO:mod=-us	!	!	!	!	!	!	!	!	!	!
8G\	-(us)	.	.	.	.	.	.	.	.	.	.
!LO:TX:t=P:problem=kreska pseudotaktowa	!	!	!	!	!	!	!	!	!LO:TX:t=P:problem=kreska pseudotaktowa	!	!
2A\	noſ-	.	.	.	.	.	.	.	2e\	noſ-	.
!	!	!	!	!	!	!LO:TX:t=P:problem=# above	!	!	!	!	!
!	!	!	!	!	!	!LO:TX:t=P:problem=kreska pseudotaktowa	!	!	!	!	!
.	.	.	.	.	.	4c#X\	no-	.	.	.	.
=38-	=38-	=38-	=38-	=38-	=38-	=38-	=38-	=38-	=38-	=38-	=38-
!	!	!	!	!	!	!	!	!	!LO:N:acc=-	!	!
4D/	-ter	.	4r	.	.	4d\	-ſter	.	2fn\	-ter	.
!	!	!	!LO:TX:t=P:problem=cztery skreślone półnuty	!	!	!	!LO:MO:mod=Chris-	!	!	!	!
2D/	.	.	2d\	Chriſ-	.	2f\	Ch(riſ)-	.	.	.	.
!	!	!	!	!	!	!	!	!	!LO:TX:t=P:problem=kreska pseudotaktowa	!	!
.	.	.	.	.	.	.	.	.	2re	.	.
!LO:TX:t=P:problem=kreska pseudotaktowa	!	!	!	!LO:MO:mod=-tus	!	!LO:TX:t=P:problem=kreska pseudotaktowa	!LO:MO:mod=-tus	!	!	!	!
4AA/	Chriſ-	.	2c\	-t(us)	.	4e\	-t(us)	.	.	.	.
!	!	!	!	!	!	!	!	!	!LO:TX:a:t=I.:mod=	!	!
8BB-/L	-tus	.	.	.	.	2d\	De-	.	1r	.	.
8C/	.	.	.	.	.	.	.	.	.	.	.
8D/	.	.	2B-\	De-	.	.	.	.	.	.	.
8Eny/J	.	.	.	.	.	.	.	.	.	.	.
!	!	!	!	!	!	!LO:TX:t=P:problem=kreska pseudotaktowa	!LO:MO:mod=-us	!	!	!	!
8F\L	De-	.	.	.	.	2cny\	-(us)	.	.	.	.
8G\	.	.	.	.	.	.	.	.	.	.	.
!	!	!	!	!LO:MO:mod=-us	!	!	!	!	!	!	!
8A\	.	.	2A/	-(us)	.	.	.	.	.	.	.
!LO:TX:t=P:problem=kreska pseudotaktowa	!	!	!	!	!	!	!	!	!	!	!
8F\J	.	.	.	.	.	.	.	.	.	.	.
=39-	=39-	=39-	=39-	=39-	=39-	=39-	=39-	=39-	=39-	=39-	=39-
!LO:TX:t=P:problem=mixed beam	!	!	!	!	!	!	!	!	!	!	!
8G\L	.	.	.	.	.	2B-\	no-	.	4r	.	.
8GG/	.	.	.	.	.	.	.	.	.	.	.
!	!	!	!	!	!	!	!	!	!LO:TX:t=P:problem=nuta skreślona	!	!
8BB-/	.	.	8G/	De-	.	.	.	.	2g\	Chriſ-	.
*custos:D	*	*	*	*	*	*	*	*	*	*	*
8GG/J	.	.	8G/	-us	.	.	.	.	.	.	.
*xywh-#314:7266,2237,6260,1074	*	*	*	*	*	*	*	*	*	*	*
!LO:LB:g=original	!	!	!	!	!	!	!	!	!	!	!
!	!	!	!LO:TX:t=P:problem=kreska pseudotaktowa	!	!	!	!	!	!	!	!
8D\L	.	.	2A/	noſ-	.	4d\	-ſter	.	.	.	.
8E\J	.	.	.	.	.	.	.	.	.	.	.
!LO:TX:t=P:problem=kreska pseudotaktowa	!	!	!	!	!	!	!	!	!LO:TX:t=P:problem=nuta skreślona	!LO:MO:null:mod=-tus	!
4F\	.	.	.	.	.	2c\	.	.	2f\	.	.
4C/	-us	.	4G/	-ter	.	.	.	.	.	.	.
!	!	!	!	!LO:MO:mod=Chris-	!	!	!	!	!	!LO:MO:mod=De-	!
2C/	Chriſ-	.	2G/	Ch(riſ)-	.	8B-\L	De-	.	4.e\	-t(us)	.
*	*	*	*	*	*	*custos:G	*	*	*	*	*
!	!	!	!	!	!	!LO:TX:t=P:problem=kreska pseudotaktowa	!	!	!	!	!
.	.	.	.	.	.	8A\J	.	.	.	.	.
*	*	*	*	*	*	*xywh-#151:1368,1223,5953,930	*	*	*	*	*
!	!	!	!	!	!	!LO:LB:g=original	!	!	!	!	!
.	.	.	.	.	.	8G/L	.	.	.	.	.
!	!	!	!	!	!	!	!	!	!	!LO:MO:null:mod=.	!
.	.	.	.	.	.	8A/	.	.	8f\	De-	.
!LO:TX:t=P:problem=kreska pseudotaktowa	!LO:MO:mod=-tus	!	!LO:TX:t=P:problem=kreska pseudotaktowa	!LO:MO:mod=-tus	!	!	!	!	!LO:TX:t=P:problem=kreska pseudotaktowa	!	!
4BB-/	-t(us)	.	4G/	-t(us)	.	8B-/	.	.	4g\	-us	.
!	!	!	!	!	!	!LO:TX:t=P:problem=kreska pseudotaktowa	!	!	!	!	!
.	.	.	.	.	.	8G/J	.	.	.	.	.
=40-	=40-	=40-	=40-	=40-	=40-	=40-	=40-	=40-	=40-	=40-	=40-
!	!	!	!	!	!	!	!	!	!LO:TX:t=P:problem=# above	!	!
4AA/	De-	.	4A/	De-	.	4c\	-us	.	4f#X\	no-	.
!	!LO:MO:mod=-us	!	!	!LO:MO:mod=-us	!	!	!	!	!	!	!
4GG/	-(us)	.	4B-/	-(us)	.	4d\	.	.	2g\	.	.
!LO:TX:t=P:problem=kreska pseudotaktowa	!	!	!LO:TX:t=P:problem=kreska pseudotaktowa	!	!	!LO:TX:t=P:problem=kreska pseudotaktowa	!	!	!	!	!
2D/	noſ-	.	2A/	noſ-	.	2d\	noſ-	.	.	.	.
!	!	!	!	!	!	!	!	!	!LO:TX:t=P:problem=# above	!	!
!	!	!	!	!	!	!	!	!	!LO:TX:t=P:problem=kreska pseudotaktowa	!	!
.	.	.	.	.	.	.	.	.	4f#X\	.	.
!LO:TX:t=P:problem=kreska pseudotaktowa	!	!	!	!	!	!LO:TX:t=P:problem=kreska pseudotaktowa	!	!	!LO:TX:t=P:problem=kreska pseudotaktowa	!	!
1GG	-ter,	.	4B-\	-ter	.	1d	-ter	.	1g	-ſter	.
.	.	.	4G/	qui	.	.	.	.	.	.	.
!	!	!	!LO:TX:t=P:problem=kreska pseudotaktowa	!LO:MO:mod=sol-	!	!	!	!	!	!	!
.	.	.	2B-\	Sol-	.	.	.	.	.	.	.
=41-	=41-	=41-	=41-	=41-	=41-	=41-	=41-	=41-	=41-	=41-	=41-
!LO:TX:t=P:problem=cezura na 3. linii	!LO:MO:mod=qui	!	!	!LO:MO:mod=-vens	!	!	!	!	!	!	!
2D,/	Qui	.	4A/	-uens	.	0rA	.	.	0r	.	.
!	!	!	!	!LO:MO:null:mod=ma-	!	!	!	!	!	!	!
.	.	.	4.F/	.	.	.	.	.	.	.	.
!LO:TX:t=P:problem=kreska pseudotaktowa	!LO:MO:null:mod=sol-	!	!	!	!	!	!	!	!	!	!
2F\	.	.	.	.	.	.	.	.	.	.	.
!	!	!	!	!LO:MO:null:mod=-le-	!	!	!	!	!	!	!
.	.	.	8G/	.	.	.	.	.	.	.	.
!	!	!	!	!LO:MO:mod=-dic-	!	!	!	!	!	!	!
.	.	.	8A/	ma-	.	.	.	.	.	.	.
!	!	!	!LO:TX:t=P:problem=kreska pseudotaktowa	!LO:MO:mod=-ti-	!	!	!	!	!	!	!
.	.	.	8B-\	-le-	.	.	.	.	.	.	.
!LO:N:acc=#	!	!	!	!	!	!	!	!	!	!	!
!LO:TX:t=P:problem=# above	!LO:MO:mod=-vens	!	!	!LO:MO:mod=-o-	!	!	!	!	!	!	!
4En\	ſol-	.	4.c\	-dic-	.	.	.	.	.	.	.
!	!LO:MO:mod=ma-	!	!	!	!	!	!	!	!	!	!
4.C/	-uens	.	.	.	.	.	.	.	.	.	.
!	!	!	!	!LO:MO:null:mod=.	!	!	!	!	!	!	!
.	.	.	16B-\LL	-ti-	.	.	.	.	.	.	.
*	*	*	*custos:G	*	*	*	*	*	*	*	*
!	!	!	!	!LO:MO:null:mod=.	!	!	!	!	!	!	!
.	.	.	16A\JJ	-o-	.	.	.	.	.	.	.
*	*	*	*xywh-#227:7270,3470,6033,982	*	*	*	*	*	*	*	*
!	!	!	!LO:LB:g=original	!	!	!	!	!	!	!	!
.	.	.	8G/L	.	.	.	.	.	.	.	.
8D/	.	.	8F/	.	.	.	.	.	.	.	.
!	!LO:MO:mod=-le-	!	!	!	!	!	!	!	!	!	!
8E\	ma-	.	8G/	.	.	.	.	.	.	.	.
!LO:TX:t=P:problem=kreska pseudotaktowa	!LO:MO:null:mod=.	!	!LO:TX:t=P:problem=kreska pseudotaktowa	!	!	!	!	!	!	!	!
8F\	-le-	.	8A/J	.	.	.	.	.	.	.	.
=42-	=42-	=42-	=42-	=42-	=42-	=42-	=42-	=42-	=42-	=42-	=42-
!	!	!	!	!	!	!LO:TX:t=P:problem=kreska pseudotaktowa	!	!	!	!	!
2G\	-dic-	.	8B-\L	.	.	1rA	.	.	4r	.	.
.	.	.	8A\	.	.	.	.	.	.	.	.
.	.	.	8B-\	.	.	.	.	.	4d\	qui	.
.	.	.	8c\J	.	.	.	.	.	.	.	.
!LO:TX:t=P:problem=kreska pseudotaktowa	!	!	!LO:TX:t=P:problem=kreska pseudotaktowa	!	!	!	!	!	!LO:TX:t=P:problem=kreska pseudotaktowa	!	!
2D/	-ti-	.	2d\	.	.	.	.	.	2fny\	ſol-	.
!	!	!	!	!	!	!	!	!	!	!LO:MO:null:mod=-vens	!
2AA/	-o-	.	2c\	-nem	.	2rF	.	.	4e\	.	.
!	!	!	!	!	!	!	!	!	!	!LO:MO:mod=ma-	!
.	.	.	.	.	.	.	.	.	4.c/	-uens	.
!LO:TX:t=P:problem=kreska pseudotaktowa	!	!	!	!	!	!	!	!	!	!	!
!	!LO:MO:mod=-nem	!	!LO:TX:t=P:problem=kreska pseudotaktowa	!	!	!	!	!	!	!	!
2C/	-ne(m)	.	2rc	.	.	4r	.	.	.	.	.
!	!	!	!	!	!	!	!	!	!	!LO:MO:mod=-le-	!
.	.	.	.	.	.	.	.	.	8d\	ma-	.
!	!	!	!	!	!	!LO:TX:t=P:problem=kreska pseudotaktowa	!	!	!	!LO:MO:mod=-dic-	!
.	.	.	.	.	.	4G/	qui	.	8e\	-le-	.
!	!	!	!	!	!	!	!	!	!LO:TX:t=P:problem=kreska pseudotaktowa	!LO:MO:mod=-ti-	!
.	.	.	.	.	.	.	.	.	8f\	-di-	.
=43-	=43-	=43-	=43-	=43-	=43-	=43-	=43-	=43-	=43-	=43-	=43-
*	*ij	*	*	*	*	*	*	*	*	*	*
!	!LO:MO:mod=qui-	!	!	!	!	!	!LO:MO:mod=sol-	!	!	!LO:MO:mod=-o-	!
4GG/	Qui	.	1r	.	.	2B-\	Sol-	.	8g\L	-ctio-	.
.	.	.	.	.	.	.	.	.	8f\	.	.
8.BB-/	ſol-	.	.	.	.	.	.	.	8d\	.	.
.	.	.	.	.	.	.	.	.	8e\J	.	.
16C/	-uens	.	.	.	.	.	.	.	.	.	.
!	!	!	!	!	!	!	!LO:MO:null:mod=-vens	!	!	!	!
8.D/	ma-	.	.	.	.	4A/	.	.	8f\L	.	.
.	.	.	.	.	.	.	.	.	8g\J	.	.
16E\	-le-	.	.	.	.	.	.	.	.	.	.
!	!	!	!	!	!	!	!LO:MO:mod=ma-	!	!LO:TX:t=P:problem=nuta skreślona	!	!
2F\	-dic-	.	.	.	.	8.F/	-uens	.	2a\	.	.
!	!	!	!	!	!	!LO:TX:t=P:problem=kreska pseudotaktowa	!LO:MO:null:mod=-le-	!	!	!	!
.	.	.	.	.	.	16G/	.	.	.	.	.
!	!	!	!	!	!	!	!LO:MO:mod=-dic-	!	!	!	!
.	.	.	2r	.	.	8.A\	ma-	.	.	.	.
!	!	!	!	!	!	!	!LO:MO:mod=-ti-	!	!	!	!
.	.	.	.	.	.	16B-\	-le-	.	.	.	.
!LO:N:acc=#	!	!	!	!	!	!	!	!	!	!	!
!LO:TX:t=P:problem=# above	!	!	!	!	!	!	!LO:MO:mod=-o-	!	!	!	!
4En\	-ti-	.	.	.	.	2c\	-dic-	.	4g\	.	.
!LO:TX:t=P:problem=kreska pseudotaktowa	!	!	!	!	!	!	!	!	!LO:TX:t=P:problem=kreska pseudotaktowa	!	!
2D/	-o-	.	4r	.	.	.	.	.	2f\	.	.
!	!	!	!	!	!	!LO:N:acc=#	!	!	!	!	!
!	!	!	!	!	!	!LO:TX:t=P:problem=kreska pseudotaktowa	!	!	!	!	!
!	!	!	!LO:TX:t=P:problem=kreska pseudotaktowa	!	!	!LO:TX:t=P:problem=# above	!LO:MO:null:mod=.	!	!	!	!
.	.	.	4F/	de-	.	4Bn\	-ti-	.	.	.	.
=44-	=44-	=44-	=44-	=44-	=44-	=44-	=44-	=44-	=44-	=44-	=44-
!	!	!	!	!	!	!	!LO:MO:null:mod=.	!	!	!	!
2C/	.	.	4G/	-dit	.	2c\	-o-	.	(>2e-X\	.	.
.	.	.	8G/	be-	.	.	.	.	.	.	.
.	.	.	8A/	-ne-	.	.	.	.	.	.	.
*	*	*	*	*	*	*	*	*	*custos:c	*	*
!LO:TX:t=P:problem=kreska pseudotaktowa	!LO:MO:mod=-nem	!	!	!	!	!LO:TX:t=P:problem=kreska pseudotaktowa	!	!	!LO:TX:t=P:problem=kreska pseudotaktowa	!	!
2BB-/	-ne(m)	.	8.B-\	-dic-	.	2F/	-nem	.	2d\)	.	.
*	*Xij	*	*	*	*	*	*	*	*	*	*
.	.	.	16F/	-ti-	.	.	.	.	.	.	.
.	.	.	2B-\	-o-	.	.	.	.	.	.	.
*	*	*	*	*	*	*	*	*	*xywh-#64:7447,3483,5919,1188	*	*
!	!	!	!	!	!	!	!	!	!LO:LB:g=original	!	!
1r	.	.	.	.	.	0r	.	.	4c/	-nem	.
!	!	!	!	!LO:MO:mod=-nem	!	!	!	!	!	!LO:MO:null:mod=de-	!
.	.	.	8A/	-ne(m)	.	.	.	.	4c/	.	.
.	.	.	8A/	qui	.	.	.	.	.	.	.
!	!	!	!LO:TX:t=P:problem=kreska pseudotaktowa	!	!	!	!	!	!	!LO:MO:mod=-dit	!
.	.	.	2B-\	ſol-	.	.	.	.	4d\	de-	.
!	!	!	!	!	!	!	!	!	!	!LO:MO:mod=be-	!
.	.	.	.	.	.	.	.	.	8.d\	-dit	.
!	!	!	!	!	!	!	!	!	!LO:TX:t=P:problem=kreska pseudotaktowa	!	!
!	!	!	!	!	!	!	!	!	!LO:SIC:s=16eni	!LO:MO:mod=-ne-	!
.	.	.	.	.	.	.	.	.	16eny\	be-	.
=45-	=45-	=45-	=45-	=45-	=45-	=45-	=45-	=45-	=45-	=45-	=45-
!	!	!	!	!LO:MO:mod=-vens	!	!	!	!	!	!LO:MO:mod=-dic-	!
2r	.	.	4A/	-uens	.	.	.	.	8.f\	-ne-	.
!	!	!	!	!	!	!	!	!	!	!LO:MO:mod=-ti-	!
.	.	.	.	.	.	.	.	.	16c/	-dic-	.
!	!	!	!	!LO:MO:null:mod=ma-	!	!	!	!	!	!LO:MO:mod=-o-	!
.	.	.	8.F/	.	.	.	.	.	2f\	-ti-	.
!	!	!	!	!LO:MO:null:mod=-le-	!	!	!	!	!	!	!
.	.	.	16G/	.	.	.	.	.	.	.	.
!	!	!	!	!LO:MO:mod=-dic-	!	!	!	!	!	!	!
4r	.	.	8.A/	ma-	.	.	.	.	.	.	.
!	!	!	!	!LO:MO:mod=-ti-	!	!	!	!	!	!	!
.	.	.	16B-\	-le-	.	.	.	.	.	.	.
*custos:E-	*	*	*	*	*	*	*	*	*	*	*
!LO:TX:t=P:problem=kreska pseudotaktowa	!	!	!	!LO:MO:mod=-o-	!	!	!	!	!	!LO:MO:null:mod=.	!
4C/	qui	.	4.c\	-dic-	.	.	.	.	8e-X\L	-o-	.
!	!	!	!	!	!	!	!	!	!LO:TX:t=P:problem=kreska pseudotaktowa	!	!
.	.	.	.	.	.	.	.	.	8f\J	.	.
*xywh-#314:7255,2832,6396,1085	*	*	*	*	*	*	*	*	*	*	*
!LO:LB:g=original	!	!	!	!	!	!	!	!	!	!	!
!	!LO:MO:mod=sol-	!	!	!	!	!LO:TX:t=P:problem=kreska pseudotaktowa	!	!	!	!	!
2E-X\	Sol-	.	.	.	.	1r	.	.	2.g\	.	.
!	!	!	!	!LO:MO:null:mod=.	!	!	!	!	!	!	!
.	.	.	16B-\LL	-ti-	.	.	.	.	.	.	.
!	!	!	!	!LO:MO:null:mod=.	!	!	!	!	!	!	!
.	.	.	16A\JJ	-o-	.	.	.	.	.	.	.
.	.	.	8G\L	.	.	.	.	.	.	.	.
.	.	.	8A\J	.	.	.	.	.	.	.	.
4D/	-uens	.	4B-\	.	.	.	.	.	.	.	.
!LO:TX:t=P:problem=kreska pseudotaktowa	!	!	!	!	!	!	!	!	!	!LO:MO:null:mod=.	!
!LO:MO:mod=[4D	!	!	!	!	!	!	!	!	!	!	!
(<4.D/	ma-	.	8A/L	.	.	.	.	.	8f\L	-nem	.
!	!	!	!LO:TX:t=P:problem=kreska pseudotaktowa	!	!	!	!	!	!	!	!
.	.	.	8G/J	.	.	.	.	.	8e-\J	.	.
=46-	=46-	=46-	=46-	=46-	=46-	=46-	=46-	=46-	=46-	=46-	=46-
!LO:MO:null:mod=8D]	!	!	!	!	!	!	!	!	!	!LO:MO:null:mod=-nem	!
.	.	.	8A/L	.	.	4r	.	.	2f\	.	.
!LO:SIC:s=8C	!	!	!	!	!	!	!	!	!	!	!
8C/)	le-	.	8B-/J	.	.	.	.	.	.	.	.
8AA/	-dic-	.	4.c\	.	.	4c\	qui	.	.	.	.
8BB-/	-ti-	.	.	.	.	.	.	.	.	.	.
!LO:TX:t=P:problem=kreska pseudotaktowa	!	!	!	!	!	!LO:TX:t=P:problem=kreska pseudotaktowa	!LO:MO:mod=sol-	!	!LO:TX:t=P:problem=kreska pseudotaktowa	!	!
2C/	-o-	.	.	.	.	2e-X\	Sol-	.	2r	.	.
.	.	.	16B-\LL	.	.	.	.	.	.	.	.
.	.	.	16A\JJ	.	.	.	.	.	.	.	.
.	.	.	8G/L	.	.	.	.	.	.	.	.
!	!	!	!LO:TX:t=P:problem=kreska pseudotaktowa	!	!	!	!	!	!	!	!
.	.	.	8A/J	.	.	.	.	.	.	.	.
!	!	!	!	!	!	!	!LO:MO:mod=-vens	!	!	!	!
4GG/	-nem	.	4B-\	.	.	4d\	-uens	.	1r	.	.
!	!	!	!	!	!	!	!LO:MO:null:mod=ma-	!	!	!	!
4.G\	ma-	.	4B-\	-nem	.	4.B-y\	.	.	.	.	.
*	*	*	*custos:d	*	*	*	*	*	*	*	*
!	!	!	!LO:TX:t=P:problem=kreska pseudotaktowa	!	!	!	!	!	!	!	!
.	.	.	2rF	.	.	.	.	.	.	.	.
!	!	!	!	!	!	!	!LO:MO:null:mod=-le-	!	!	!	!
8A\	-le-	.	.	.	.	8c	.	.	.	.	.
!	!	!	!	!	!	!	!LO:MO:mod=-dic-	!	!	!	!
8B-\	-dic-	.	.	.	.	8.d\	ma-	.	.	.	.
!LO:TX:t=P:problem=kreska pseudotaktowa	!	!	!	!	!	!	!	!	!	!	!
8G\	-ti-	.	.	.	.	.	.	.	.	.	.
!	!	!	!	!	!	!LO:TX:t=P:problem=kreska pseudotaktowa	!	!	!	!	!
!	!	!	!	!	!	!LO:SIC:s=16eni	!LO:MO:mod=-ti-	!	!	!	!
.	.	.	.	.	.	16eny\	-le-	.	.	.	.
!	!	!	!LO:PB:g=original	!	!	!	!	!	!	!	!
=47-	=47-	=47-	=47-	=47-	=47-	=47-	=47-	=47-	=47-	=47-	=47-
*	*	*	*xywh-#228:1119,554,6081,921	*	*	*	*	*	*	*	*
!	!	!	!LO:TX:t=P:problem=kreska pseudotaktowa	!	!	!	!LO:MO:mod=-o-	!	!	!	!
4A\	-o-	.	1r	.	.	8f\L	-dic-	.	2r	.	.
!	!	!	!	!	!	!	!LO:MO:null:mod=.	!	!	!	!
.	.	.	.	.	.	8c\J	-ti-	.	.	.	.
(>8G\L	.	.	.	.	.	2d\	.	.	.	.	.
8F\J)	.	.	.	.	.	.	.	.	.	.	.
!	!	!	!	!	!	!	!	!	!LO:TX:t=P:problem=kreska pseudotaktowa	!	!
8Eny\L	.	.	.	.	.	.	.	.	2eny\	qui	.
8D\J	.	.	.	.	.	.	.	.	.	.	.
!LO:TX:t=P:problem=kreska pseudotaktowa	!	!	!	!	!	!LO:TX:t=P:problem=# above	!	!	!	!	!
!	!	!	!	!	!	!	!LO:MO:null:mod=.	!	!	!	!
4E\	.	.	.	.	.	4c#X\	-o-	.	.	.	.
!LO:TX:t=P:problem=cezura na 1. linii	!	!	!	!	!	!	!	!	!	!LO:MO:null:mod=sol-	!
2D,/	-nem	.	(>8d\L	ma-	.	2d\	-nem	.	2f\	.	.
.	.	.	8c\J)	.	.	.	.	.	.	.	.
.	.	.	(>8A\L	-le-	.	.	.	.	.	.	.
!	!	!	!LO:N:acc=#	!	!	!	!	!	!	!	!
.	.	.	8Bn\J)	.	.	.	.	.	.	.	.
!LO:TX:t=P:problem=kreska pseudotaktowa	!	!	!	!	!	!	!	!	!	!	!
!	!	!	!	!	!	!LO:TX:t=P:problem=kreska pseudotaktowa	!	!	!	!LO:MO:mod=-vens	!
2AA/	qui	.	4.c#X\	-di-	.	2r	.	.	4e\	Sol-	.
!	!	!	!	!	!	!	!	!	!LO:TX:t=P:problem=kreska pseudotaktowa	!LO:MO:mod=ma-	!
.	.	.	.	.	.	.	.	.	4.a\	uens	.
!	!	!	!LO:TX:t=P:problem=kreska pseudotaktowa	!	!	!	!	!	!	!	!
.	.	.	8c#\	-cti-	.	.	.	.	.	.	.
=48-	=48-	=48-	=48-	=48-	=48-	=48-	=48-	=48-	=48-	=48-	=48-
2BB-/	ſol-	.	2.d\	-o-	.	2r	.	.	.	.	.
!	!	!	!	!	!	!	!	!	!	!LO:MO:mod=-le-	!
.	.	.	.	.	.	.	.	.	8g\	ma-	.
!	!	!	!	!	!	!	!	!	!	!LO:MO:mod=-dic-	!
.	.	.	.	.	.	.	.	.	8.d\	-le-	.
!	!	!	!	!	!	!	!	!	!	!LO:MO:mod=-ti-	!
.	.	.	.	.	.	.	.	.	16e\	-dic-	.
!LO:TX:t=P:problem=kreska pseudotaktowa	!	!	!	!	!	!	!	!	!	!LO:MO:mod=-o-	!
2AA/	-uens	.	.	.	.	4r	.	.	4f\	-ti-	.
*	*	*	*	*	*	*custos:F	*	*	*	*	*
!	!	!	!LO:TX:t=P:problem=# above	!	!	!LO:TX:t=P:problem=kreska pseudotaktowa	!	!	!LO:TX:t=P:problem=kreska pseudotaktowa	!LO:MO:null:mod=.	!
.	.	.	4c#X\	-nem	.	4A/	de-	.	4e\	-o-	.
*	*	*	*	*	*	*xywh-#151:1350,1855,6067,904	*	*	*	*	*
!	!	!	!	!	!	!LO:LB:g=original	!	!	!	!	!
4.D/	ma-	.	2d\	.	.	4F/	-dit	.	2d\	-nem	.
.	.	.	.	.	.	8.F/	be-	.	.	.	.
8E\	-le-	.	.	.	.	.	.	.	.	.	.
.	.	.	.	.	.	16G/	-ne-	.	.	.	.
!	!	!	!LO:TX:t=P:problem=kreska pseudotaktowa	!	!	!	!	!	!LO:TX:t=P:problem=kreska pseudotaktowa	!	!
8F\	-dic-	.	2r	.	.	8.A\	-dic-	.	2r	.	.
8G\	-ti-	.	.	.	.	.	.	.	.	.	.
.	.	.	.	.	.	16B-\	-ti-	.	.	.	.
!LO:TX:t=P:problem=cross-measure beam	!	!	!	!	!	!	!	!	!	!	!
8A\	-o-	.	.	.	.	2cny\	-o-	.	.	.	.
8G\	.	.	.	.	.	.	.	.	.	.	.
=49-	=49-	=49-	=49-	=49-	=49-	=49-	=49-	=49-	=49-	=49-	=49-
!LO:TX:t=P:problem=# above	!	!	!	!	!	!	!	!	!	!	!
8F#X\	.	.	4r	.	.	.	.	.	1rc	.	.
8E\	.	.	.	.	.	.	.	.	.	.	.
2G\	.	.	4d\	de-	.	4B-\	.	.	.	.	.
!	!	!	!	!	!	!LO:TX:t=P:problem=kreska pseudotaktowa	!	!	!	!	!
.	.	.	4cny\	-dit	.	2A/	.	.	.	.	.
!LO:TX:t=P:problem=kreska pseudotaktowa	!	!	!	!LO:MO:null:mod=be-	!	!	!	!	!	!	!
4F#\	.	.	8.c\	.	.	.	.	.	.	.	.
!	!	!	!LO:TX:t=P:problem=kreska pseudotaktowa	!LO:MO:mod=-ne-	!	!	!	!	!	!	!
.	.	.	16A/	be-	.	.	.	.	.	.	.
!	!	!	!	!LO:MO:mod=-dic-	!	!	!	!	!	!	!
8G\L	.	.	(>8B-y\L	-ne-	.	2G/	-nem	.	4r	.	.
8A\J	.	.	8c\)	.	.	.	.	.	.	.	.
!	!	!	!	!LO:MO:mod=-ti-	!	!	!	!	!	!	!
8B-\L	.	.	8d\	-di-	.	.	.	.	4g\	de-	.
16c\L	.	.	16e-X\L	.	.	.	.	.	.	.	.
!	!	!	!	!LO:MO:null:mod=.	!	!	!	!	!	!	!
16B-\JJ	.	.	16d\JJ	-cti-	.	.	.	.	.	.	.
!LO:TX:t=P:problem=kreska pseudotaktowa	!	!	!LO:TX:t=P:problem=kreska pseudotaktowa	!	!	!	!	!	!	!	!
2A\	.	.	2c\	-o-	.	4r	.	.	4g\	-dit	.
!	!	!	!	!	!	!	!LO:MO:null:mod=de-	!	!	!	!
.	.	.	.	.	.	4A/	.	.	8.f#X\	be-	.
!	!	!	!	!	!	!	!	!	!LO:TX:t=P:problem=kreska pseudotaktowa	!	!
.	.	.	.	.	.	.	.	.	16f#\	-ne-	.
=50-	=50-	=50-	=50-	=50-	=50-	=50-	=50-	=50-	=50-	=50-	=50-
!	!	!	!	!	!	!	!LO:MO:mod=-dit	!	!	!	!
2G\	-nem	.	2d\	-nem	.	4B-\	de-	.	2g\	-dic-	.
!	!	!	!	!	!	!	!LO:MO:mod=be-	!	!	!	!
.	.	.	.	.	.	8.B-\	-dit	.	.	.	.
!	!	!	!	!	!	!	!LO:MO:mod=-ne-	!	!	!	!
.	.	.	.	.	.	16c\	be-	.	.	.	.
*custos:E	*	*	*	*	*	*	*	*	*	*	*
!LO:TX:t=P:problem=kreska pseudotaktowa	!	!	!	!	!	!	!	!	!	!	!
!	!	!	!LO:TX:t=P:problem=kreska pseudotaktowa	!	!	!	!LO:MO:mod=-dic-	!	!LO:TX:t=P:problem=kreska pseudotaktowa	!	!
2D/	de-	.	2rc	.	.	8.d\	-ne-	.	2fny\	-ti-	.
!	!	!	!	!	!	!	!LO:MO:mod=-ti-	!	!	!	!
.	.	.	.	.	.	16A/	-dic-	.	.	.	.
!	!	!	!	!	!	!	!LO:MO:mod=-o-	!	!	!	!
.	.	.	.	.	.	2d\	-ti-	.	.	.	.
*xywh-#314:7203,3448,6385,1210	*	*	*	*	*	*	*	*	*	*	*
!LO:LB:g=original	!	!	!	!	!	!	!	!	!	!	!
4En\	-dit	.	1r	.	.	.	.	.	2e\	-o-	.
!	!	!	!	!	!	!	!LO:MO:null:mod=.	!	!	!	!
8.E\	be-	.	.	.	.	4c\	-o-	.	.	.	.
16Fny\	-ne-	.	.	.	.	.	.	.	.	.	.
8.G\	-dic-	.	.	.	.	4.B-\	.	.	1d\	-nem	.
16D/	-ti-	.	.	.	.	.	.	.	.	.	.
2G\	-o-	.	.	.	.	.	.	.	.	.	.
.	.	.	.	.	.	16A/LL	.	.	.	.	.
!	!	!	!	!	!	!LO:TX:t=P:problem=kreska pseudotaktowa	!	!	!	!	!
.	.	.	.	.	.	16G/JJ	.	.	.	.	.
=51-	=51-	=51-	=51-	=51-	=51-	=51-	=51-	=51-	=51-	=51-	=51-
.	.	.	2D/	de-	.	8A/	.	.	.	.	.
.	.	.	.	.	.	8D/	-nem	.	.	.	.
4F\	.	.	.	.	.	4d\	.	.	.	.	.
!LO:TX:t=P:problem=kreska pseudotaktowa	!LO:MO:mod=-nem	!	!	!	!	!	!	!	!	!	!
2G,\	-ne(m)	.	4E/	-dit	.	4c\	de-	.	2r	.	.
.	.	.	8.E/	be-	.	8.c\	-dit	.	.	.	.
!	!	!	!LO:TX:t=P:problem=kreska pseudotaktowa	!	!	!LO:TX:t=P:problem=kreska pseudotaktowa	!	!	!	!	!
.	.	.	16F/	-ne-	.	16c\	be-	.	.	.	.
*	*	*	*	*	*	*	*	*	*custos:c	*	*
!	!	!	!	!	!	!	!	!	!LO:TX:t=P:problem=kreska pseudotaktowa	!	!
2GG/	qui	.	8.G/	-dic-	.	8B-\L	-ne-	.	1rc	.	.
.	.	.	.	.	.	8c\J	.	.	.	.	.
.	.	.	16A/	-ti-	.	.	.	.	.	.	.
.	.	.	4.B-\	-o-	.	2d\	-dic-	.	.	.	.
!	!LO:MO:mod=sol-	!	!	!	!	!	!	!	!	!	!
4BB-/	Sol-	.	.	.	.	.	.	.	.	.	.
.	.	.	16A/LL	.	.	.	.	.	.	.	.
.	.	.	16G/JJ	.	.	.	.	.	.	.	.
!LO:TX:t=P:problem=kreska pseudotaktowa	!LO:MO:mod=-vens	!	!	!	!	!LO:TX:t=P:problem=kreska pseudotaktowa	!	!	!	!	!
4BB-/	-uens	.	8F/L	.	.	4d\	-ti-	.	.	.	.
!	!	!	!LO:TX:t=P:problem=kreska pseudotaktowa	!	!	!	!	!	!	!	!
.	.	.	8G/J	.	.	.	.	.	.	.	.
!	!	!	!	!	!	!	!	!	!LO:PB:g=original	!	!
=52-	=52-	=52-	=52-	=52-	=52-	=52-	=52-	=52-	=52-	=52-	=52-
*	*	*	*	*	*	*	*	*	*xywh-#65:1106,514,6074,968	*	*
8AA/	ma-	.	2A/	.	.	1c	-o-	.	4r	.	.
8GG/	-le-	.	.	.	.	.	.	.	.	.	.
*	*	*	*	*	*	*	*	*	*	*ij	*
8AA/	-dic-	.	.	.	.	.	.	.	4c/	de-	.
8BB-/	-ti-	.	.	.	.	.	.	.	.	.	.
!LO:TX:t=P:problem=kreska pseudotaktowa	!	!	!LO:TX:t=P:problem=kreska pseudotaktowa	!	!	!	!	!	!	!	!
2C/	-o-	.	2G/	-nem	.	.	.	.	4e-X\	-dit	.
.	.	.	.	.	.	.	.	.	8.e-\	be-	.
!	!	!	!	!	!	!	!	!	!LO:TX:t=P:problem=kreska pseudotaktowa	!	!
.	.	.	.	.	.	.	.	.	16e-\	-ne-	.
!	!LO:MO:mod=-nem	!	!	!	!	!	!	!	!	!	!
2GG/	-ne(m)	.	4r	.	.	2B-\	-nem	.	(>8d\L	-dic-	.
.	.	.	.	.	.	.	.	.	8c\J)	.	.
*	*	*	*	*ij	*	*	*	*	*	*	*
*	*	*	*custos:A	*	*	*	*	*	*	*	*
.	.	.	4B-\	de-	.	.	.	.	(>8d\L	-ti-	.
.	.	.	.	.	.	.	.	.	8e-\J)	.	.
*	*	*	*xywh-#228:1090,1029,6081,1049	*	*	*	*	*	*	*	*
!	!	!	!LO:LB:g=original	!	!	!	!	!	!	!	!
!LO:TX:t=P:problem=kreska pseudotaktowa	!	!	!	!	!	!LO:TX:t=P:problem=kreska pseudotaktowa	!	!	!LO:TX:t=P:problem=kreska pseudotaktowa	!	!
2D/	de-	.	4A\	-dit	.	2r	.	.	2f\	-o-	.
.	.	.	8A\	be-	.	.	.	.	.	.	.
!	!	!	!LO:TX:t=P:problem=kreska pseudotaktowa	!	!	!	!	!	!	!	!
.	.	.	8B-\	-ne-	.	.	.	.	.	.	.
=53-	=53-	=53-	=53-	=53-	=53-	=53-	=53-	=53-	=53-	=53-	=53-
4C/	-dit	.	4c\	-dic-	.	2rd	.	.	4eny\	-nem	.
*	*	*	*	*	*	*	*	*	*	*Xij	*
8.C/	be-	.	4G/	-ti-	.	.	.	.	8e\	de-	.
.	.	.	.	.	.	.	.	.	8c/	-dit	.
16C/	-ne-	.	.	.	.	.	.	.	.	.	.
!	!	!	!	!	!	!LO:TX:t=P:problem=kreska pseudotaktowa	!	!	!	!	!
4.BB-/	-dic-	.	4B-\	-o-	.	2d\	de-	.	8.d\	be-	.
.	.	.	.	.	.	.	.	.	16G/	-ne-	.
!	!	!	!LO:TX:t=P:problem=kreska pseudotaktowa	!	!	!	!	!	!LO:TX:t=P:problem=nuta skreślona	!	!
.	.	.	4G/	.	.	.	.	.	2g\	-dic-	.
!LO:TX:t=P:problem=kreska pseudotaktowa	!	!	!	!	!	!	!	!	!	!	!
8BB-/	-ti-	.	.	.	.	.	.	.	.	.	.
2AA/	-o-	.	2A/	-nem	.	4c\	-dit	.	.	.	.
*	*	*	*	*Xij	*	*	*	*	*	*	*
!	!	!	!	!	!	!	!	!	!LO:TX:t=P:problem=# above	!	!
.	.	.	.	.	.	8c\	be-	.	4f#X\	-ti-	.
*	*	*	*	*	*	*custos:B	*	*	*	*	*
.	.	.	.	.	.	8A\	-ne-	.	.	.	.
*	*	*	*	*	*	*xywh-#151:1236,2382,6023,1009	*	*	*	*	*
!	!LO:MO:mod=-nem	!	!	!	!	!LO:LB:g=original	!LO:MO:null:mod=-dic-	!	!	!	!
4GG/	-ne(m)	.	4.B-\	be-	.	8B-\L	.	.	8g\L	-o-	.
!	!	!	!	!	!	!	!LO:MO:null:mod=.	!	!	!	!
.	.	.	.	.	.	(>8c\J	-di-	.	8f#\	.	.
8.BB-/	be-	.	.	.	.	2d\	.	.	8d\	.	.
!	!	!	!LO:TX:t=P:problem=kreska pseudotaktowa	!	!	!	!	!	!LO:TX:t=P:problem=kreska pseudotaktowa	!	!
.	.	.	8B-\	-ne-	.	.	.	.	8e\J	.	.
!LO:TX:t=P:problem=kreska pseudotaktowa	!	!	!	!	!	!	!	!	!	!	!
16C/	-ne-	.	.	.	.	.	.	.	.	.	.
=54-	=54-	=54-	=54-	=54-	=54-	=54-	=54-	=54-	=54-	=54-	=54-
!	!	!	!	!	!	!	!	!	!LO:TX:t=P:problem=# above	!	!
4D/	-dic-	.	4A/	-dic-	.	.	.	.	8f#X\L	.	.
.	.	.	.	.	.	.	.	.	8d\J	.	.
!	!	!	!	!	!	!	!LO:MO:mod=-ti-	!	!	!	!
4GG/	-ti-	.	4B-\	-ti-	.	4d\	-cti-	.	2g\	.	.
!LO:TX:t=P:problem=kreska pseudotaktowa	!	!	!	!	!	!	!	!	!	!	!
2D/	-o-	.	2A/	-o-	.	2d\)	-o-	.	.	.	.
!	!	!	!	!	!	!	!	!	!	!LO:MO:null:mod=.	!
.	.	.	.	.	.	.	.	.	4f#\	-nem	.
!	!	!	!LO:N:acc=#	!	!	!	!	!	!	!	!
!	!	!	!LO:TX:t=P:problem=kreska pseudotaktowa	!	!	!LO:TX:t=P:problem=kreska pseudotaktowa	!	!	!LO:TX:t=P:problem=kreska pseudotaktowa	!LO:MO:null:mod=-nem	!
1GG,	-nem	.	1Bn	-nem	.	1d	-nem	.	1g	.	.
=55-	=55-	=55-	=55-	=55-	=55-	=55-	=55-	=55-	=55-	=55-	=55-
*M3/1	*	*	*M3/1	*	*	*M3/1	*	*	*M3/1	*	*
1.G	Et	.	1.B-y	Et	.	1.d	Et	.	1.g	Et	.
2G\	con-	.	2B-\	con-	.	2d\	con-	.	2g\	con-	.
*custos:D	*	*	*	*	*	*	*	*	*	*	*
!LO:TX:t=P:problem=kreska pseudotaktowa	!	!	!	!	!	!	!	!	!	!	!
!	!	!	!LO:TX:t=P:problem=kreska pseudotaktowa	!	!	!LO:TX:t=P:problem=kreska pseudotaktowa	!	!	!LO:TX:t=P:problem=kreska pseudotaktowa	!	!
1E-X	-fun-	.	1B-	-fun-	.	1e-X	-fun-	.	1g	-fun-	.
!LO:PB:g=original	!	!	!	!	!	!	!	!	!	!	!
=56-	=56-	=56-	=56-	=56-	=56-	=56-	=56-	=56-	=56-	=56-	=56-
*xywh-#315:981,520,6383,851	*	*	*	*	*	*	*	*	*	*	*
1D	-dens	.	1B-	-dens	.	1B-	-dens	.	1fny	-dens	.
*	*	*	*lig	*	*	*	*	*	*	*	*
0F	mor-	.	1B-	mor-	.	0c	mor-	.	0f	mor-	.
.	.	.	1A	.	.	.	.	.	.	.	.
*	*	*	*Xlig	*	*	*	*	*	*	*	*
=57-	=57-	=57-	=57-	=57-	=57-	=57-	=57-	=57-	=57-	=57-	=57-
!LO:TX:t=P:problem=kreska pseudotaktowa	!	!	!LO:TX:t=P:problem=kreska pseudotaktowa	!	!	!LO:TX:t=P:problem=kreska pseudotaktowa	!	!	!LO:TX:t=P:problem=kreska pseudotaktowa	!LO:MO:mod=-tem	!
0.BB-	-tem	.	0.B-	-tem	.	0.d	-tem	.	0.f	-te(m)	.
=58-	=58-	=58-	=58-	=58-	=58-	=58-	=58-	=58-	=58-	=58-	=58-
*	*ij	*	*	*ij	*	*	*ij	*	*	*ij	*
1.B-	Et	.	1.B-	Et	.	1.d	Et	.	1.f	Et	.
2B-\	con-	.	2B-\	con-	.	2d\	con-	.	2f\	con-	.
*	*	*	*	*	*	*	*	*	*custos:a	*	*
!	!	!	!	!	!	!	!	!	!LO:TX:t=P:problem=kreska pseudotaktowa	!	!
!LO:TX:t=P:problem=kreska pseudotaktowa	!	!	!LO:TX:t=P:problem=kreska pseudotaktowa	!	!	!LO:TX:t=P:problem=kreska pseudotaktowa	!	!	!	!	!
1G	-fun-	.	1d	-fun-	.	1d	-fun-	.	1g	-fun-	.
!	!	!	!	!	!	!	!	!	!LO:LB:g=original	!	!
=59-	=59-	=59-	=59-	=59-	=59-	=59-	=59-	=59-	=59-	=59-	=59-
*	*	*	*	*	*	*	*	*	*xywh-#65:1247,1147,5995,977	*	*
1F	-dens	.	1d	-dens	.	1f	-dens	.	1a	-dens	.
*lig	*	*	*lig	*	*	*	*	*	*	*	*
1A	mor-	.	1d	mor-	.	0eny	mor-	.	0a	mor-	.
!LO:TX:t=P:problem=kreska pseudotaktowa	!	!	!LO:TX:t=P:problem=# below	!	!	!	!	!	!	!	!
1AA	.	.	1c#X	.	.	.	.	.	.	.	.
*Xlig	*	*	*Xlig	*	*	*	*	*	*	*	*
=60-	=60-	=60-	=60-	=60-	=60-	=60-	=60-	=60-	=60-	=60-	=60-
!LO:TX:t=P:problem=kreska pseudotaktowa	!	!	!LO:TX:t=P:problem=kreska pseudotaktowa	!	!	!LO:TX:t=P:problem=kreska pseudotaktowa	!	!	!LO:TX:t=P:problem=kreska pseudotaktowa	!LO:MO:mod=-tem	!
0.D	-tem	.	0.d	-tem	.	0.d	-tem	.	0.a	-te(m)	.
=61-	=61-	=61-	=61-	=61-	=61-	=61-	=61-	=61-	=61-	=61-	=61-
1.D	Et	.	1.A	Et	.	1.d	Et	.	1.f	Et	.
2D/	con-	.	2A/	con-	.	2d\	con-	.	2f\	con-	.
*	*	*	*custos:c	*	*	*	*	*	*	*	*
!LO:TX:t=P:problem=kreska pseudotaktowa	!	!	!LO:TX:t=P:problem=kreska pseudotaktowa	!	!	!LO:TX:t=P:problem=kreska pseudotaktowa	!	!	!LO:TX:t=P:problem=kreska pseudotaktowa	!	!
1BB-	-fun-	.	1B-	-fun-	.	1d	-fun-	.	1f	-fun-	.
!	!	!	!LO:LB:g=original	!	!	!	!	!	!	!	!
=62-	=62-	=62-	=62-	=62-	=62-	=62-	=62-	=62-	=62-	=62-	=62-
*	*	*	*xywh-#228:1208,1693,6001,1000	*	*	*	*	*	*	*	*
1AA	-dens	.	1cny	-dens	.	1c	-dens	.	1f	-dens	.
*	*	*	*	*	*	*	*	*	*lig	*	*
0C	mor-	.	0G	mor-	.	0c	mor-	.	1f	mor-	.
.	.	.	.	.	.	.	.	.	1e	.	.
*	*	*	*	*	*	*	*	*	*Xlig	*	*
=63-	=63-	=63-	=63-	=63-	=63-	=63-	=63-	=63-	=63-	=63-	=63-
*M2/1	*	*	*M2/1	*	*	*M2/1	*	*	*M2/1	*	*
*met(c|)	*	*	*met(c|)	*	*	*met(c|)	*	*	*met(c|)	*	*
*mmet(c|)	*	*	*mmet(c|)	*	*	*mmet(c|)	*	*	*mmet(c|)	*	*
!	!	!	!	!	!	!	!	!	!	!LO:MO:mod=-tem	!
4FFny/	-tem	.	2A/	-tem	.	4c,\	-tem	.	4f\	-te(m)	.
*	*Xij	*	*	*Xij	*	*	*Xij	*	*	*Xij	*
4F\	do-	.	.	.	.	4c\	do-	.	4f\	do-	.
4B-\	-na-	.	4r	.	.	4d\	-na-	.	4f\	-na-	.
*	*	*	*	*	*	*custos:d	*	*	*	*	*
!	!	!	!	!	!	!LO:TX:t=P:problem=kreska pseudotaktowa	!	!	!	!	!
!LO:TX:t=P:problem=kreska pseudotaktowa	!	!	!LO:TX:t=P:problem=kreska pseudotaktowa	!	!	!	!LO:MO:mod=-vit	!	!LO:TX:t=P:problem=kreska pseudotaktowa	!LO:MO:mod=-vit	!
4A\	.	.	4F/	do-	.	4c\	-uit	.	4f\	uit	.
*	*	*	*	*	*	*xywh-#151:1445,3151,5839,886	*	*	*	*	*
!	!LO:MO:mod=-vit	!	!	!	!	!LO:LB:g=original	!	!	!	!	!
4B-\	-uit	.	4B-\	-na-	.	4d\	no-	.	2f\	no-	.
!	!	!	!	!LO:MO:mod=-vit	!	!	!	!	!	!	!
8F\	no-	.	4A\	-uit	.	8c\	-bis	.	.	.	.
*	*	*	*	*	*	*	*ij	*	*	*	*
8F\	-bis	.	.	.	.	8c\	do-	.	.	.	.
*	*ij	*	*	*	*	*	*	*	*	*	*
4D/	no-	.	4B-\	no-	.	4d\	-na-	.	4f\	-bis	.
*	*	*	*	*	*	*	*	*	*	*ij	*
!LO:TX:t=P:problem=kreska pseudotaktowa	!	!	!LO:TX:t=P:problem=kreska pseudotaktowa	!	!	!LO:TX:t=P:problem=kreska pseudotaktowa	!LO:MO:mod=-vit	!	!LO:TX:t=P:problem=kreska pseudotaktowa	!	!
4AA/	.	.	4c\	-bis	.	4c\	-uit	.	4f\	do-	.
=64-	=64-	=64-	=64-	=64-	=64-	=64-	=64-	=64-	=64-	=64-	=64-
4BB-/	.	.	4d\	Vi-	.	4B-\	no-	.	4d\	-na-	.
!	!	!	!	!	!	!	!	!	!	!LO:MO:mod=-vit	!
8FF/	-bis	.	4c\	-tam	.	8c\	-bis	.	4A/	-uit	.
*	*Xij	*	*	*	*	*	*	*	*	*	*
8F\	do-	.	.	.	.	8c\	do-	.	.	.	.
4B-\	-na-	.	4r	.	.	4B-\	-na-	.	4d\	no-	.
*	*	*	*	*ij	*	*	*	*	*	*	*
*custos:G	*	*	*	*	*	*	*	*	*	*	*
!LO:TX:t=P:problem=kreska pseudotaktowa	!	!	!	!	!	!	!	!	!	!	!
!	!LO:MO:mod=-vit	!	!LO:TX:t=P:problem=kreska pseudotaktowa	!	!	!LO:TX:t=P:problem=kreska pseudotaktowa	!LO:MO:mod=-vit	!	!	!	!
4A\	-uit	.	4F/	do-	.	4c\	-uit	.	8f\	-bis	.
*	*	*	*	*	*	*	*	*	*	*Xij	*
!	!	!	!	!	!	!	!	!	!LO:TX:t=P:problem=kreska pseudotaktowa	!	!
.	.	.	.	.	.	.	.	.	8f\	.	.
*xywh-#315:1312,1115,6002,950	*	*	*	*	*	*	*	*	*	*	*
!LO:LB:g=original	!	!	!	!	!	!	!	!	!	!	!
4G\	no-	.	4B-\	-na-	.	4B-\	no-	.	4.d\	.	.
!	!	!	!	!LO:MO:mod=-vit	!	!	!	!	!	!	!
8F#X\	-bis	.	4A/	-uit	.	4c\	-bis	.	.	.	.
*	*	*	*	*	*	*	*Xij	*	*	*	*
*	*ij	*	*	*	*	*	*	*	*	*	*
8D/	no-	.	.	.	.	.	.	.	8a\	.	.
4BB-/	.	.	8.G/	no-	.	4r	.	.	4.d\	.	.
.	.	.	16G/	-bis	.	.	.	.	.	.	.
!LO:TX:t=P:problem=kreska pseudotaktowa	!	!	!LO:TX:t=P:problem=kreska pseudotaktowa	!	!	!LO:TX:t=P:problem=kreska pseudotaktowa	!	!	!	!	!
4FF#X/	.	.	4A/	Vi-	.	4d\	do-	.	.	.	.
!	!	!	!	!	!	!	!	!	!LO:TX:t=P:problem=kreska pseudotaktowa	!	!
.	.	.	.	.	.	.	.	.	8d\	.	.
=65-	=65-	=65-	=65-	=65-	=65-	=65-	=65-	=65-	=65-	=65-	=65-
4GG/	-bis	.	4G/	-tam	.	4B-\	-na-	.	1d	Vi-	.
*	*Xij	*	*	*Xij	*	*	*	*	*	*	*
!	!	!	!	!	!	!	!LO:MO:mod=-vit	!	!	!	!
4D/	.	.	4r	.	.	4F#X/	-uit	.	.	.	.
4G\	Vi-	.	4r	.	.	4G/	no-	.	.	.	.
*	*	*	*	*ij	*	*	*	*	*	*	*
!LO:TX:t=P:problem=kreska pseudotaktowa	!	!	!LO:TX:t=P:problem=kreska pseudotaktowa	!	!	!LO:TX:t=P:problem=kreska pseudotaktowa	!	!	!	!	!
4F#X\	-tam	.	4D/	do-	.	4A/	-bis	.	.	.	.
4B-\	ſem-	.	4G/	-na-	.	4B-\	Vi-	.	2d\	-tam	.
!	!	!	!LO:TX:t=P:problem=# below	!LO:MO:mod=-vit	!	!	!	!	!	!	!
4A\	-pi-	.	4F#X/	-uit	.	4d\	.	.	.	.	.
!	!	!	!	!	!	!	!	!	!LO:TX:t=P:problem=kreska pseudotaktowa	!	!
(>4G\	-ter-	.	4B-\	no-	.	4.d\	-tam	.	2r	.	.
!LO:TX:t=P:problem=kreska pseudotaktowa	!	!	!LO:TX:t=P:problem=kreska pseudotaktowa	!	!	!	!	!	!	!	!
4F#X\)	.	.	4A/	-bis	.	.	.	.	.	.	.
!	!	!	!	!	!	!LO:TX:t=P:problem=kreska pseudotaktowa	!	!	!	!	!
.	.	.	.	.	.	8d\	ſem-	.	.	.	.
=66-	=66-	=66-	=66-	=66-	=66-	=66-	=66-	=66-	=66-	=66-	=66-
*	*	*	*	*	*	*	*	*	*custos:e-	*	*
4.G\	-nam	.	2G/	Vi-	.	2d\	-pi-	.	2g\	do-	.
8G\	.	.	.	.	.	.	.	.	.	.	.
*	*	*	*	*	*	*	*	*	*xywh-#65:1238,1773,5942,950	*	*
!	!	!	!	!	!	!	!	!	!LO:LB:g=original	!	!
!	!	!	!LO:TX:t=P:problem=kreska pseudotaktowa	!	!	!	!	!	!	!	!
4C/	do-	.	2G/	-tam	.	4c\	-ter-	.	4e-X\	-na-	.
*	*	*	*	*Xij	*	*	*	*	*	*	*
!	!	!	!	!	!	!	!	!	!LO:N:acc=#	!	!
!LO:TX:t=P:problem=kreska pseudotaktowa	!	!	!	!	!	!LO:TX:t=P:problem=kreska pseudotaktowa	!	!	!LO:TX:t=P:problem=kreska pseudotaktowa	!LO:MO:mod=-vit	!
4GG/	-na-	.	.	.	.	4d\	-nam	.	4Bn/	-uit	.
*	*	*	*	*	*	*	*ij	*	*	*	*
!	!LO:MO:mod=-vit	!	!	!	!	!	!LO:MO:mod=do-	!	!	!	!
4C/	-uit	.	2.G/	ſem-	.	4e-X\	Do-	.	4c/	no-	.
!	!	!	!	!	!	!LO:N:acc=#	!	!	!	!	!
!	!	!	!	!	!	!LO:TX:t=P:problem=# above	!	!	!	!	!
8G\	no-	.	.	.	.	4Bn\	-na-	.	8d\	-bis	.
*	*	*	*	*	*	*	*	*	*	*ij	*
8G\	-bis	.	.	.	.	.	.	.	8d\	Vi-	.
*	*ij	*	*	*	*	*	*	*	*	*	*
!	!	!	!	!	!	!	!LO:MO:mod=-vit	!	!	!	!
4E-X\	no-	.	.	.	.	4c\	-uit	.	4e-X\	.	.
!LO:N:acc=#	!	!	!	!	!	!	!	!	!	!	!
!LO:TX:t=P:problem=kreska pseudotaktowa	!	!	!	!	!	!	!	!	!LO:TX:t=P:problem=kreska pseudotaktowa	!	!
!	!	!	!	!	!	!LO:TX:t=P:problem=kreska pseudotaktowa	!	!	!	!	!
4BBn/	.	.	4G/	-pi-	.	4d\	no-	.	4g\	-tam	.
=67-	=67-	=67-	=67-	=67-	=67-	=67-	=67-	=67-	=67-	=67-	=67-
4C/	.	.	0.G	-ter-	.	4e-X\	-bis	.	4c/	do-	.
!	!	!	!	!	!	!LO:N:acc=#	!	!	!	!	!
!	!	!	!	!	!	!LO:TX:t=P:problem=# above	!	!	!	!	!
4GG/	-bis	.	.	.	.	4Bn\	Vi-	.	8d\	-na-	.
*	*Xij	*	*	*	*	*	*	*	*	*	*
!	!	!	!	!	!	!	!	!	!	!LO:MO:mod=-vit	!
.	.	.	.	.	.	.	.	.	8g\	-uit	.
4C/	Vi-	.	.	.	.	4c\	.	.	4e-X\	no-	.
*	*	*	*	*	*	*custos:e-	*	*	*	*	*
!	!	!	!	!	!	!LO:TX:t=P:problem=kreska pseudotaktowa	!	!	!	!	!
!LO:TX:t=P:problem=kreska pseudotaktowa	!	!	!	!	!	!	!	!	!LO:TX:t=P:problem=kreska pseudotaktowa	!	!
4G\	-tam	.	.	.	.	4d\	-tam	.	4B#X/	-bis	.
*	*	*	*	*	*	*	*	*	*	*Xij	*
*	*	*	*	*	*	*xywh-#151:1261,3678,6032,974	*	*	*	*	*
!	!	!	!	!	!	!LO:LB:g=original	!	!	!	!	!
2C/	ſem-	.	.	.	.	2e-X\	ſem-	.	4.c/	Vi-	.
.	.	.	.	.	.	.	.	.	8c/	-tam	.
!LO:N:acc=#	!	!	!	!	!	!	!	!	!	!	!
!LO:TX:t=P:problem=kreska pseudotaktowa	!	!	!	!	!	!	!	!	!	!	!
!	!	!	!	!	!	!LO:TX:t=P:problem=kreska pseudotaktowa	!	!	!	!	!
2BBn/	-pi-	.	.	.	.	2.d\	-pi-	.	4.d\	ſem-	.
.	.	.	.	.	.	.	.	.	8d\	-pi-	.
=68-	=68-	=68-	=68-	=68-	=68-	=68-	=68-	=68-	=68-	=68-	=68-
1C	-ter-	.	.	.	.	.	.	.	1e-X	-ter-	.
.	.	.	.	.	.	8c\L	.	.	.	.	.
.	.	.	.	.	.	8B-y\J	.	.	.	.	.
!	!	!	!	!	!	!LO:TX:t=P:problem=kreska pseudotaktowa	!	!	!	!	!
.	.	.	.	.	.	2c\	-ter-	.	.	.	.
*	*	*	*lig	*	*	*	*	*	*	*	*
!	!	!	!	!LO:MO:mod=-nam.	!	!LO:N:acc=#	!LO:MO:mod=-nam.	!	!	!	!
1GGl	-nam.	.	1Gl	-nam	.	1Bnl	-nam	.	1dl	-nam.	.
*	*	*	*	*	*	*	*Xij	*	*	*	*
!LO:TX:a:t=P:problem=w źródle ta adnotacja zapisana na pieciolinii	!	!	!LO:TX:a:t=P:problem=w źródle ta adnotacja zapisana na pieciolinii	!	!	!LO:TX:a:t=P:problem=w źródle ta adnotacja zapisana na pieciolinii	!	!	!LO:TX:a:t=P:problem=w źródle ta adnotacja zapisana na pieciolinii	!	!
!LO:TX:a:i:t=A M D G.:mod=	!	!	!LO:TX:a:i:t=A M D G.:mod=	!	!	!LO:TX:a:i:t=A M D G.:mod=	!	!	!LO:TX:a:i:t=A M D G.:mod=	!	!
==	==	==	==	==	==	==	==	==	==	==	==
*-	*-	*-	*-	*-	*-	*-	*-	*-	*-	*-	*-
!!!system-decoration: [(*)]
!!!RDF**kern: i = editorial accidental
!!!RDF**kern: > = above
!!!RDF**kern: < = below
!!LO:MO:ori
!!!RDF**kern: l = terminal long
!!LO:MO:end
!!!filter-modern: sic -sq | shed -e "s/TX(.*):t=P:/tx$1:t=P:/LG" | shed -e "s/^(\d+[\/\\]right)/$1yy/I;s/^(\d+[\/\\]left)/$1yy/I" | shed -k -e "s/r[a-gA-G]+/r/D" | shed -e "s/-//B" | shed -e "s/^custos:/Xcustos:/I" | shed -k -e "s/LO:N:acc/LO:n:acc:/L" | autostem -r | tie -s  | humtr -p | modori -m
!!!ENC: Kamil Watkowski
!!!END: 2021-03-04
!!!EED: Antoni Szymański
!!!EEV: 2021-03-18
!!!ENC-modern: Andrzej Borzym
!!!END-modern: 2022-07-14
!!!ENC-iiif: Bartosz Żurakowski
!!!END-iiif: 2022-09-19
